%
(Header)
(Generated by gcodetools from Inkscape.)
(Using default header. To add your own header create file "header" in the output dir.)
M3
(Header end.)
G21 (All units in mm)

(Start cutting path id: path245)
(Change tool to Default tool)

G00 Z5.000000
G00 X107.742961 Y124.341521
M5 S90
G4 P1

G01 Z-1.000000 F100.0(Penetrate)
G02 X108.315540 Y122.370654 Z-1.000000 I-0.625107 J-1.250214 F800.000000
G03 X108.642961 Y121.791521 Z-1.000000 I0.327421 J-0.197010
G03 X108.847022 Y121.811006 Z-1.000000 I0.000000 J1.078325
G03 X109.092961 Y121.941521 Z-1.000000 I-0.089871 J0.466325
G02 X108.534764 Y124.188015 Z-1.000000 I14.053920 J4.684640
G02 X108.792961 Y125.391521 Z-1.000000 I1.650386 J0.275380
G02 X108.990494 Y125.758818 Z-1.000000 I0.440245 J-0.000000
G03 X109.092961 Y126.141521 Z-1.000000 I-0.164640 J0.249150
G02 X108.051698 Y126.865217 Z-1.000000 I4.875677 J8.126128
G03 X106.692961 Y127.341521 Z-1.000000 I-1.358737 J-1.699859
G03 X104.526263 Y125.930776 Z-1.000000 I18.111653 J-30.186089
G03 X102.642961 Y124.041521 Z-1.000000 I4.461038 J-6.330294
G02 X102.560605 Y123.734166 Z-1.000000 I-0.614711 J0.000000
G03 X102.642961 Y123.591521 Z-1.000000 I0.082356 J-0.047548
G03 X102.788003 Y123.627361 Z-1.000000 I-0.000000 J0.311410
G03 X102.942961 Y123.741521 Z-1.000000 I-0.299045 J0.568163
G02 X104.084190 Y124.690034 Z-1.000000 I5.713276 J-5.713276
G02 X105.342961 Y125.541521 Z-1.000000 I63.815208 J-92.983168
G02 X106.131158 Y125.920372 Z-1.000000 I1.738762 J-2.608143
G02 X107.142961 Y125.841521 Z-1.000000 I0.408852 J-1.284751
G03 X106.525889 Y125.316602 Z-1.000000 I1.926869 J-2.890303
G02 X105.942961 Y124.941521 Z-1.000000 I-1.025928 J0.953920
G02 X105.466363 Y124.551424 Z-1.000000 I-2.192597 J2.192597
G03 X105.192961 Y124.041521 Z-1.000000 I0.338790 J-0.509903
G03 X107.217961 Y124.266521 Z-1.000000 I0.000000 J9.225000
G02 X107.892961 Y124.341521 Z-1.000000 I0.675000 J-3.000000
G01 X107.742961 Y124.341521 Z-1.000000
M3 S90
G4 P1
G00 Z5.000000

(End cutting path id: path245)


(Start cutting path id: polygon243)
(Change tool to Default tool)

G00 Z5.000000
G00 X131.892959 Y104.691522
M5 S90
G4 P1
G01 Z-1.000000 F100.0(Penetrate)
G01 X132.192959 Y105.441522 Z-1.000000 F800.000000
G01 X121.842960 Y105.441522 Z-1.000000
G01 X122.142960 Y104.691522 Z-1.000000
G01 X131.892959 Y104.691522 Z-1.000000
M3 S90
G4 P1
G00 Z5.000000

(End cutting path id: polygon243)


(Start cutting path id: path241)
(Change tool to Default tool)

G00 Z5.000000
G00 X133.542959 Y113.391522
M5 S90
G4 P1
G01 Z-1.000000 F100.0(Penetrate)
G02 X132.885313 Y109.829644 Z-1.000000 I-6.092500 J-0.716765 F800.000000
G02 X130.842959 Y107.691522 Z-1.000000 I-4.735757 J2.479140
G01 X132.642959 Y107.691522 Z-1.000000
G03 X134.390478 Y114.164768 Z-1.000000 I-2.082411 J4.034671
G02 X132.642959 Y116.991522 Z-1.000000 I105.549249 J67.204815
G03 X132.503560 Y116.910456 Z-1.000000 I-0.068078 J-0.043322
G02 X133.692959 Y113.391522 Z-1.000000 I-10.253078 J-5.426013
G01 X133.542959 Y113.391522 Z-1.000000
M3 S90
G4 P1
G00 Z5.000000

(End cutting path id: path241)


(Start cutting path id: path239)
(Change tool to Default tool)

G00 Z5.000000
G00 X122.892960 Y107.541522
M5 S90
G4 P1
G01 Z-1.000000 F100.0(Penetrate)
G02 X122.380954 Y108.408971 Z-1.000000 I1.427260 J1.427260 F800.000000
G02 X122.142960 Y110.091522 Z-1.000000 I5.828595 J1.682551
G02 X122.334096 Y111.706503 Z-1.000000 I6.918372 J-0.000000
G02 X122.892960 Y113.391522 Z-1.000000 I10.209427 J-2.450937
G02 X124.198601 Y115.444394 Z-1.000000 I8.513230 J-3.972841
G02 X125.892960 Y116.991522 Z-1.000000 I6.565412 J-5.488838
G01 X126.642960 Y117.441522 Z-1.000000
G01 X126.192960 Y116.691522 Z-1.000000
G03 X125.479802 Y115.227751 Z-1.000000 I70.783943 J-35.391972
G03 X124.842960 Y113.841522 Z-1.000000 I55.466532 J-26.321063
G03 X124.509134 Y112.771930 Z-1.000000 I6.677203 J-2.670881
G03 X124.392960 Y111.741522 Z-1.000000 I4.511503 J-1.030408
G03 X124.734200 Y110.026567 Z-1.000000 I4.480000 J0.000000
G03 X125.592960 Y108.741522 Z-1.000000 I3.660646 J1.516842
G03 X125.821482 Y109.520666 Z-1.000000 I-10.567978 J3.522659
G03 X126.042960 Y111.291522 Z-1.000000 I-6.968813 J1.770856
G03 X126.018055 Y111.883530 Z-1.000000 I-7.048648 J0.000000
G03 X125.892960 Y112.491522 Z-1.000000 I-2.608708 J-0.219879
G01 X125.742960 Y112.941522 Z-1.000000
G01 X126.192960 Y112.791522 Z-1.000000
G02 X127.158759 Y111.909761 Z-1.000000 I-1.481310 J-2.592293
G02 X127.992960 Y110.391522 Z-1.000000 I-6.608555 J-4.619387
G03 X128.383963 Y111.215937 Z-1.000000 I-19.631851 J9.815925
G03 X128.592960 Y112.191522 Z-1.000000 I-2.172493 J0.975585
G01 X128.592960 Y112.641522 Z-1.000000
G03 X127.927159 Y115.657822 Z-1.000000 I-7.165329 J-0.000000
G03 X126.942960 Y117.591522 Z-1.000000 I-27.116233 J-12.584097
G02 X126.080730 Y119.373191 Z-1.000000 I68.479979 J34.239989
G02 X125.742960 Y120.891521 Z-1.000000 I3.243679 J1.518330
G02 X125.914995 Y121.917318 Z-1.000000 I3.144279 J-0.000000
G02 X126.492960 Y122.841521 Z-1.000000 I2.293825 J-0.791657
G03 X126.239979 Y122.278657 Z-1.000000 I0.614450 J-0.614450
G03 X126.342960 Y121.341521 Z-1.000000 I2.800128 J-0.166522
G03 X126.765324 Y120.199763 Z-1.000000 I5.411761 J1.352940
G03 X127.542960 Y118.941522 Z-1.000000 I7.365874 J3.682937
G03 X128.334755 Y117.838931 Z-1.000000 I7.073961 J4.244377
G02 X129.192960 Y116.541522 Z-1.000000 I-4.916955 J-4.184990
G02 X129.652100 Y115.807375 Z-1.000000 I-12.376394 J-8.250929
G02 X130.392959 Y113.991522 Z-1.000000 I-5.962252 J-3.491631
G02 X130.524953 Y113.354828 Z-1.000000 I-2.634674 J-0.878225
G02 X130.542959 Y112.941522 Z-1.000000 I-4.734310 J-0.413306
G02 X130.175606 Y110.260949 Z-1.000000 I-6.381665 J-0.490897
G02 X128.442960 Y107.541522 Z-1.000000 I-7.000969 J2.548895
G01 X129.342960 Y107.541522 Z-1.000000
G03 X131.599432 Y109.790862 Z-1.000000 I-4.541774 J6.812661
G03 X132.492959 Y113.091522 Z-1.000000 I-4.422236 J2.968425
G03 X131.105503 Y117.344336 Z-1.000000 I-8.378981 J-0.380863
G03 X128.442960 Y121.191521 Z-1.000000 I-97.032697 J-64.309037
G02 X127.493961 Y123.681991 Z-1.000000 I4.390118 J3.098907
G02 X127.992960 Y125.241521 Z-1.000000 I1.980977 J0.225749
G03 X125.112986 Y123.175014 Z-1.000000 I5.897947 J-11.259717
G03 X122.592960 Y120.141522 Z-1.000000 I11.836378 J-12.396365
G03 X120.818442 Y116.921888 Z-1.000000 I14.869268 J-10.294109
G03 X119.892960 Y113.541522 Z-1.000000 I12.010761 J-5.105198
G03 X120.448419 Y109.725535 Z-1.000000 I6.240381 J-1.040063
G03 X122.742960 Y107.541522 Z-1.000000 I4.085522 J1.994943
G01 X122.892960 Y107.541522 Z-1.000000
M3 S90
G4 P1
G00 Z5.000000

(End cutting path id: path239)


(Start cutting path id: polygon237)
(Change tool to Default tool)

G00 Z5.000000
G00 X133.092959 Y105.891522
M5 S90
G4 P1
G01 Z-1.000000 F100.0(Penetrate)
G01 X133.542959 Y107.091522 Z-1.000000 F800.000000
G01 X120.492960 Y107.091522 Z-1.000000
G01 X120.942960 Y105.891522 Z-1.000000
G01 X133.092959 Y105.891522 Z-1.000000
M3 S90
G4 P1
G00 Z5.000000

(End cutting path id: polygon237)


(Start cutting path id: path235)
(Change tool to Default tool)

G00 Z5.000000
G00 X113.142960 Y103.491522
M5 S90
G4 P1
G01 Z-1.000000 F100.0(Penetrate)
G03 X111.522495 Y103.931290 Z-1.000000 I-1.363156 J-1.817541 F800.000000
G02 X111.342960 Y104.091522 Z-1.000000 I-0.018265 J0.160233
G01 X111.342960 Y104.091522 Z-1.000000
G03 X111.202127 Y103.409419 Z-1.000000 I2.802914 J-0.934305
G02 X111.042960 Y102.291522 Z-1.000000 I-10.056543 J0.861579
G01 X111.042960 Y102.291522 Z-1.000000
G03 X111.823677 Y102.068361 Z-1.000000 I1.479532 J3.698829
G03 X112.692960 Y101.991522 Z-1.000000 I0.869283 J4.878718
G01 X112.692960 Y101.991522 Z-1.000000
G01 X113.142960 Y103.641522 Z-1.000000
G01 X113.142960 Y103.641522 Z-1.000000
G01 X113.142960 Y103.491522 Z-1.000000
M3 S90
G4 P1
G00 Z5.000000

(End cutting path id: path235)


(Start cutting path id: path233)
(Change tool to Default tool)

G00 Z5.000000
G00 X110.442960 Y99.291523
M3 S90
G4 P1
G01 Z-1.000000 F100.0(Penetrate)
G01 X110.442960 Y99.291523 Z-1.000000 F800.000000
G01 X110.142960 Y97.491523 Z-1.000000
G01 X110.142960 Y97.491523 Z-1.000000
G03 X110.994158 Y97.305775 Z-1.000000 I1.291084 J3.873253
G03 X111.792960 Y97.341523 Z-1.000000 I0.283240 J2.613561
G01 X111.792960 Y97.341523 Z-1.000000
G02 X111.939584 Y98.267115 Z-1.000000 I30.502458 J-4.357494
G02 X112.092960 Y98.991523 Z-1.000000 I10.041301 J-1.747574
G01 X112.092960 Y98.991523 Z-1.000000
G03 X111.355241 Y99.294386 Z-1.000000 I-0.952313 J-1.269750
G03 X110.442960 Y99.291523 Z-1.000000 I-0.445887 J-3.267617
G01 X110.442960 Y99.291523 Z-1.000000
M3 S90
G4 P1
G00 Z5.000000

(End cutting path id: path233)


(Start cutting path id: path231)
(Change tool to Default tool)

G00 Z5.000000
G00 X131.892959 Y102.591522
M5 S90
G4 P1
G01 Z-1.000000 F100.0(Penetrate)
G03 X131.517959 Y102.141522 Z-1.000000 I2.287500 J-2.287500 F800.000000
G02 X131.142959 Y101.691522 Z-1.000000 I-2.662500 J1.837500
G01 X131.142959 Y104.091522 Z-1.000000
G01 X122.742960 Y104.091522 Z-1.000000
G01 X122.892960 Y102.591522 Z-1.000000
G01 X126.942960 Y98.241523 Z-1.000000
G03 X126.589486 Y98.007599 Z-1.000000 I0.785427 J-1.570854
G03 X126.192960 Y97.641523 Z-1.000000 I4.385846 J-5.148449
G02 X123.098038 Y101.086789 Z-1.000000 I30.610433 J30.610433
G03 X120.042960 Y104.391522 Z-1.000000 I-25.861854 J-20.843619
G03 X118.689842 Y105.988555 Z-1.000000 I-29.019042 J-23.215234
G03 X116.142960 Y107.841522 Z-1.000000 I-5.604306 J-5.026239
G03 X113.357153 Y108.805869 Z-1.000000 I-4.138489 J-7.449281
G02 X108.342961 Y109.941522 Z-1.000000 I6.448287 J40.108084
G02 X106.740770 Y110.359176 Z-1.000000 I4.943962 J22.247830
G02 X104.742961 Y110.991522 Z-1.000000 I19.789661 J65.994756
G02 X103.213241 Y111.479689 Z-1.000000 I7.207500 J25.226250
G03 X102.342961 Y111.741522 Z-1.000000 I-3.202789 J-9.068200
G02 X102.233029 Y111.887143 Z-1.000000 I0.466393 J0.466393
G02 X102.192961 Y112.041522 Z-1.000000 I0.277369 J0.154379
G02 X102.244674 Y112.278453 Z-1.000000 I0.568625 J-0.000000
G02 X102.342961 Y112.341522 Z-1.000000 I0.098287 J-0.045051
G01 X102.342961 Y112.341522 Z-1.000000
G02 X103.128496 Y112.200413 Z-1.000000 I-5.210918 J-31.265511
G03 X105.699211 Y111.872772 Z-1.000000 I3.859259 J20.031362
G03 X108.055747 Y111.943986 Z-1.000000 I0.798217 J12.611835
G03 X109.392961 Y112.641522 Z-1.000000 I-0.265970 J2.140401
G03 X109.537158 Y112.969661 Z-1.000000 I-0.349210 J0.349210
G03 X109.542961 Y113.241522 Z-1.000000 I-6.366097 J0.271861
G02 X109.543098 Y114.737939 Z-1.000000 I8163.046467 J-0.000003
G02 X109.692961 Y117.141522 Z-1.000000 I19.406988 J-0.003558
G01 X109.692961 Y117.141522 Z-1.000000
G01 X109.692961 Y117.141522 Z-1.000000
G01 X109.692961 Y117.891522 Z-1.000000
G03 X109.692961 Y117.920811 Z-1.000000 R0.014645
G03 X109.692961 Y118.041522 Z-1.000000 R2.050305
G01 X109.692961 Y118.491522 Z-1.000000
G02 X109.767260 Y118.646666 Z-1.000000 I0.199128 J0.000000
G02 X109.992961 Y118.791522 Z-1.000000 I0.787511 J-0.978764
G02 X111.064346 Y118.830189 Z-1.000000 I0.556474 J-0.556474
G03 X112.542960 Y119.691522 Z-1.000000 I0.591756 J0.683961
G03 X111.762211 Y123.275944 Z-1.000000 I-29.345117 J-4.514633
G02 X111.342960 Y126.291521 Z-1.000000 I10.635566 J3.015577
G01 X138.942959 Y126.291521 Z-1.000000
G02 X139.070448 Y125.236351 Z-1.000000 I-6.760618 J-1.352124
G02 X139.092959 Y124.191521 Z-1.000000 I-24.235795 J-1.044829
G02 X137.509053 Y112.547402 Z-1.000000 I-30.951723 J-1.719540
G02 X131.592959 Y102.291522 Z-1.000000 I-28.606306 J9.667234
G01 X131.892959 Y102.591522 Z-1.000000
M3 S90
G4 P1
G00 Z5.000000

(End cutting path id: path231)


(Start cutting path id: path231)
(Change tool to Default tool)

G00 Z5.000000
G00 X117.792960 Y103.641522
M5 S90
G4 P1
G01 Z-1.000000 F100.0(Penetrate)
G02 X120.677481 Y100.582045 Z-1.000000 I-50.529139 J-50.529139 F800.000000
G03 X124.542960 Y96.591523 Z-1.000000 I48.374798 J42.991537
G02 X119.868744 Y94.364696 Z-1.000000 I-13.920850 J23.201416
G02 X114.642960 Y92.991523 Z-1.000000 I-10.070115 J27.692817
G02 X115.564638 Y98.016638 Z-1.000000 I55.197593 J-7.526945
G02 X117.642960 Y103.791522 Z-1.000000 I25.355897 J-5.863904
G01 X117.792960 Y103.641522 Z-1.000000
M3 S90
G4 P1
G00 Z5.000000

(End cutting path id: path231)


(Start cutting path id: path231)
(Change tool to Default tool)

G00 Z5.000000
G00 X111.192960 Y92.391523
M5 S90
G4 P1
G01 Z-1.000000 F100.0(Penetrate)
G03 X109.621943 Y92.335628 Z-1.000000 I-0.000000 J-22.105894 F800.000000
G02 X108.042961 Y92.391523 Z-1.000000 I-0.528097 J7.412095
G02 X109.763095 Y106.209160 Z-1.000000 I854.631786 J-99.375789
G02 X111.042960 Y107.691522 Z-1.000000 I1.770533 J-0.234975
G02 X113.020410 Y107.775886 Z-1.000000 I1.164391 J-4.075369
G02 X115.842960 Y106.491522 Z-1.000000 I-1.282713 J-6.562559
G03 X115.505235 Y105.887300 Z-1.000000 I3.680632 J-2.453755
G03 X115.242960 Y105.141522 Z-1.000000 I3.858579 J-1.775991
G03 X114.460323 Y102.820952 Z-1.000000 I20.597392 J-8.238957
G03 X113.892960 Y100.341522 Z-1.000000 I27.185043 J-7.525321
G03 X112.947038 Y95.911768 Z-1.000000 I80.173167 J-19.435919
G03 X112.692960 Y93.141523 Z-1.000000 I14.975165 J-2.770246
G01 X112.692960 Y92.391523 Z-1.000000
G03 X111.867960 Y92.316523 Z-1.000000 I-0.000000 J-4.575000
G02 X111.042960 Y92.241523 Z-1.000000 I-0.825000 J4.500000
G01 X111.192960 Y92.391523 Z-1.000000
M3 S90
G4 P1
G00 Z5.000000

(End cutting path id: path231)


(Start cutting path id: path231)
(Change tool to Default tool)

G00 Z5.000000
G00 X83.742962 Y106.491522
M5 S90
G4 P1
G01 Z-1.000000 F100.0(Penetrate)
G01 X83.892962 Y106.491522 Z-1.000000 F800.000000
G02 X86.458867 Y104.923674 Z-1.000000 I-0.537637 J-3.763460
G02 X89.292962 Y99.891523 Z-1.000000 I-22.974093 J-16.253102
G02 X86.203124 Y103.066024 Z-1.000000 I17.122944 J19.757243
G02 X83.742962 Y106.491522 Z-1.000000 I25.398561 J20.837200
G01 X83.742962 Y106.491522 Z-1.000000
M3 S90
G4 P1
G00 Z5.000000

(End cutting path id: path231)


(Start cutting path id: path231)
(Change tool to Default tool)

G00 Z5.000000
G00 X79.392962 Y126.591521
M5 S90
G4 P1
G01 Z-1.000000 F100.0(Penetrate)
G01 X85.092962 Y126.591521 Z-1.000000 F800.000000
G03 X85.033587 Y125.078885 Z-1.000000 I3.073430 J-0.878123
G03 X85.992962 Y123.291521 Z-1.000000 I3.444352 J0.697614
G03 X85.675367 Y121.786638 Z-1.000000 I2.111133 J-1.231494
G03 X86.592962 Y119.991522 Z-1.000000 I2.840157 J0.319701
G03 X86.156771 Y118.749935 Z-1.000000 I2.211556 J-1.474371
G03 X86.292962 Y117.591522 Z-1.000000 I2.857701 J-0.251243
G03 X85.426837 Y116.723862 Z-1.000000 I0.864597 J-1.729194
G03 X85.242962 Y115.341522 Z-1.000000 I1.928326 J-0.959900
G03 X83.324361 Y114.416743 Z-1.000000 I1.011243 J-4.550595
G03 X82.092962 Y112.641522 Z-1.000000 I2.417227 J-2.991430
G03 X82.262250 Y111.096674 Z-1.000000 I3.332307 J-0.416538
G03 X82.992962 Y109.941522 Z-1.000000 I2.931634 J1.045770
G03 X84.142152 Y109.155343 Z-1.000000 I5.823116 J7.278895
G03 X85.392962 Y108.591522 Z-1.000000 I3.386744 J5.843983
G03 X84.250709 Y108.560008 Z-1.000000 I0.000000 J-20.716969
G03 X82.842962 Y108.291522 Z-1.000000 I0.297281 J-5.383572
G02 X80.386724 Y114.232230 Z-1.000000 I23.734838 J13.291509
G02 X79.242962 Y120.891521 Z-1.000000 I31.475398 J8.833903
G02 X79.205554 Y123.816521 Z-1.000000 I22.807517 J1.754424
G02 X79.392962 Y126.741521 Z-1.000000 I114.449810 J-5.864416
G01 X79.392962 Y126.591521 Z-1.000000
M3 S90
G4 P1
G00 Z5.000000

(End cutting path id: path231)


(Start cutting path id: path231)
(Change tool to Default tool)

G00 Z5.000000
G00 X116.292960 Y134.691521
M5 S90
G4 P1
G01 Z-1.000000 F100.0(Penetrate)
G02 X115.392960 Y135.666522 Z-1.000000 I11.737594 J11.737580 F800.000000
G03 X114.492960 Y136.641521 Z-1.000000 I-12.637488 J-10.762488
G03 X120.821364 Y143.399116 Z-1.000000 I-16.536716 J21.828465
G03 X122.142960 Y145.791521 Z-1.000000 I-14.630961 J9.643567
G01 X121.992960 Y142.641521 Z-1.000000
G01 X121.842960 Y142.491521 Z-1.000000
G01 X121.842960 Y140.391521 Z-1.000000
G02 X119.676922 Y137.825986 Z-1.000000 I-23.303651 J17.477739
G02 X116.292960 Y134.691521 Z-1.000000 I-25.834629 J24.497115
G01 X116.292960 Y134.691521 Z-1.000000
M3 S90
G4 P1
G00 Z5.000000

(End cutting path id: path231)


(Start cutting path id: path231)
(Change tool to Default tool)

G00 Z5.000000
G00 X116.742960 Y134.091521
M5 S90
G4 P10

G01 Z-1.000000 F100.0(Penetrate)
G03 X119.900709 Y137.000986 Z-1.000000 I-19.241407 J24.051749 F800.000000
G03 X121.842960 Y139.341521 Z-1.000000 I-17.326063 J16.353854
G01 X121.842960 Y138.441521 Z-1.000000
G01 X121.692960 Y138.291521 Z-1.000000
G01 X121.692960 Y133.341521 Z-1.000000
G01 X121.542960 Y133.341521 Z-1.000000
G01 X121.542960 Y129.291521 Z-1.000000
G03 X121.350478 Y129.275124 Z-1.000000 I-0.000000 J-1.137979
G03 X120.942960 Y129.141521 Z-1.000000 I0.247884 J-1.444408
G03 X120.301868 Y130.077296 Z-1.000000 I-3.714325 J-1.857163
G03 X116.742960 Y133.941521 Z-1.000000 I-292.836570 J-266.128260
G01 X116.742960 Y134.091521 Z-1.000000
M3 S90
G4 P1
G00 Z5.000000

(End cutting path id: path231)


(Start cutting path id: path231)
(Change tool to Default tool)

G00 Z5.000000
G00 X89.892962 Y131.391521
M5 S90
G4 P1

G01 Z-1.000000 F100.0(Penetrate)
G02 X93.122671 Y135.496386 Z-1.000000 I10.698307 J-5.094432 F800.000000
G02 X97.692961 Y137.841521 Z-1.000000 I7.845324 J-9.663322
G02 X102.091305 Y138.145312 Z-1.000000 I2.996004 J-11.384816
G02 X106.392961 Y136.491521 Z-1.000000 I-1.119883 J-9.334302
G02 X107.134799 Y135.883360 Z-1.000000 I-2.700000 J-4.050000
G02 X107.742961 Y135.141522 Z-1.000000 I-3.441838 J-3.441838
G03 X102.471383 Y133.943234 Z-1.000000 I0.000000 J-12.194665
G03 X97.692961 Y130.941521 Z-1.000000 I10.735663 J-22.394318
G02 X94.425870 Y129.938703 Z-1.000000 I-8.851297 J23.013373
G02 X91.392961 Y130.191521 Z-1.000000 I-1.124026 J4.834137
G02 X90.443507 Y130.708731 Z-1.000000 I0.522147 J2.088589
G02 X89.892962 Y131.241521 Z-1.000000 I15.977963 J17.061298
G01 X89.892962 Y131.391521 Z-1.000000
M3 S90
G4 P1
G00 Z5.000000

(End cutting path id: path231)


(Start cutting path id: path231)
(Change tool to Default tool)

G00 Z5.000000
G00 X92.592961 Y129.141521
M5 S90
G4 P1

G01 Z-1.000000 F100.0(Penetrate)
G03 X94.466621 Y129.328673 Z-1.000000 I-3.169574 J41.204462 F800.000000
G03 X96.192961 Y129.591521 Z-1.000000 I-3.705739 J30.139287
G02 X93.084741 Y128.188912 Z-1.000000 I-13.847041 J26.540162
G02 X90.942961 Y127.791521 Z-1.000000 I-2.141779 J5.572982
G02 X89.425366 Y128.907184 Z-1.000000 I0.000000 J1.589997
G02 X89.742962 Y129.741521 Z-1.000000 I0.688989 J0.215348
G03 X90.898508 Y129.116344 Z-1.000000 I1.627293 J1.627293
G03 X92.742961 Y128.991521 Z-1.000000 I1.368728 J6.535330
G01 X92.592961 Y129.141521 Z-1.000000
M3 S90
G4 P1
G00 Z5.000000

(End cutting path id: path231)


(Start cutting path id: path231)
(Change tool to Default tool)

G00 Z5.000000
G00 X109.542961 Y130.641521
M5 S90
G4 P1

G01 Z-1.000000 F100.0(Penetrate)
G03 X104.791221 Y130.711290 Z-1.000000 I-2.498674 J-8.328912 F800.000000
G03 X100.542961 Y128.541521 Z-1.000000 I2.963035 J-11.045209
G02 X96.197503 Y125.677368 Z-1.000000 I-29.544926 J40.096686
G02 X91.842961 Y124.041521 Z-1.000000 I-6.910021 J11.780419
G02 X89.582219 Y123.822376 Z-1.000000 I-2.023784 J9.107027
G02 X87.942962 Y124.341521 Z-1.000000 I0.078664 J3.096027
G02 X86.949199 Y125.755471 Z-1.000000 I2.124408 J2.549290
G02 X86.892962 Y127.341521 Z-1.000000 I2.416031 J0.879688
G02 X87.278905 Y128.102797 Z-1.000000 I1.861969 J-0.465492
G02 X87.642962 Y128.391521 Z-1.000000 I0.869931 J-0.723025
G03 X88.036962 Y127.585675 Z-1.000000 I2.089511 J0.522378
G03 X88.992962 Y126.741521 Z-1.000000 I2.759554 J2.161772
G03 X92.983973 Y126.814765 Z-1.000000 I1.911005 J4.641012
G03 X96.492961 Y128.841521 Z-1.000000 I-8.717373 J19.143663
G02 X99.225952 Y130.646277 Z-1.000000 I42.523842 J-61.423327
G02 X102.492961 Y132.591521 Z-1.000000 I41.073129 J-65.265636
G02 X106.381993 Y133.751982 Z-1.000000 I5.251939 J-10.503877
G02 X110.442960 Y133.191521 Z-1.000000 I0.948649 J-8.118948
G03 X110.845281 Y132.943702 Z-1.000000 I3.649263 J5.473894
G03 X111.042960 Y132.891521 Z-1.000000 I0.197680 J0.348348
G01 X111.192960 Y132.741521 Z-1.000000
G03 X111.192960 Y132.712232 Z-1.000000 R0.014645
G03 X111.192960 Y132.591521 Z-1.000000 R2.050305
G02 X110.859050 Y131.530136 Z-1.000000 I-5.089187 J1.017837
G02 X110.442960 Y130.641521 Z-1.000000 I-17.475344 J7.641012
G02 X110.048706 Y130.543336 Z-1.000000 I-0.278780 J0.278780
G03 X109.392961 Y130.641521 Z-1.000000 I-0.655745 J-2.140669
G01 X109.542961 Y130.641521 Z-1.000000
M3 S90
G4 P1
G00 Z5.000000

(End cutting path id: path231)


(Start cutting path id: path231)
(Change tool to Default tool)

G00 Z5.000000
G00 X98.442961 Y102.441522
M5 S90
G4 P1

G01 Z-1.000000 F100.0(Penetrate)
G03 X95.795848 Y105.197015 Z-1.000000 I-15.142556 J-11.897722 F800.000000
G03 X92.742961 Y107.391522 Z-1.000000 I-14.742749 J-17.288597
G02 X91.297952 Y108.216565 Z-1.000000 I6.750507 J13.501014
G03 X89.892962 Y108.891522 Z-1.000000 I-3.364698 J-5.204164
G01 X89.892962 Y109.041522 Z-1.000000
G03 X92.558020 Y110.578826 Z-1.000000 I-7.108979 J15.402788
G03 X94.842961 Y113.091522 Z-1.000000 I-4.507188 J6.393913
G03 X95.912984 Y115.484689 Z-1.000000 I-15.718274 J8.463686
G03 X96.942961 Y118.641522 Z-1.000000 I-49.441703 J17.877739
G02 X97.528496 Y118.387592 Z-1.000000 I0.151163 J-0.453490
G02 X97.842961 Y117.591522 Z-1.000000 I-7.144818 J-3.282498
G02 X98.928001 Y107.588006 Z-1.000000 I-24.130746 J-7.677965
G03 X99.492961 Y105.591522 Z-1.000000 I2.873580 J-0.265019
G03 X99.832848 Y106.014547 Z-1.000000 I-1.770990 J1.770990
G02 X103.092961 Y109.641522 Z-1.000000 I12.597101 J-8.044261
G02 X104.084316 Y109.751750 Z-1.000000 I0.694997 J-1.737492
G02 X104.892961 Y109.491522 Z-1.000000 I-0.443360 J-2.764238
G03 X98.941000 Y103.450322 Z-1.000000 I12.683578 J-18.448840
G03 X98.442961 Y102.591522 Z-1.000000 I6.681446 J-4.448542
G01 X98.442961 Y102.441522 Z-1.000000
M3 S90
G4 P1
G00 Z5.000000

(End cutting path id: path231)


(Start cutting path id: path231)
(Change tool to Default tool)

G00 Z5.000000
G00 X94.542961 Y118.041522
M5 S90
G4 P1

G01 Z-1.000000 F100.0(Penetrate)
G01 X94.692961 Y118.341522 Z-1.000000 F800.000000
G02 X94.909012 Y117.942503 Z-1.000000 I-0.176889 J-0.353778
G02 X94.542961 Y116.991522 Z-1.000000 I-2.023600 J0.232982
G02 X88.876986 Y111.833131 Z-1.000000 I-12.270673 J7.787158
G02 X84.642962 Y111.891522 Z-1.000000 I-2.061686 J4.041010
G02 X83.966786 Y112.848315 Z-1.000000 I0.464804 J1.045808
G02 X84.192962 Y113.541522 Z-1.000000 I0.948578 J0.074005
G02 X84.763199 Y113.951589 Z-1.000000 I0.830908 J-0.553939
G03 X85.392962 Y114.141522 Z-1.000000 I-2.978060 J11.013399
G03 X88.667016 Y113.496774 Z-1.000000 I2.096087 J2.008750
G03 X94.542961 Y118.191522 Z-1.000000 I-6.018467 J13.557251
G01 X94.542961 Y118.041522 Z-1.000000
M3 S90
G4 P1
G00 Z5.000000

(End cutting path id: path231)


(Start cutting path id: path231)
(Change tool to Default tool)

G00 Z5.000000
G00 X86.742962 Y116.541522
M5 S90
G4 P1

G01 Z-1.000000 F100.0(Penetrate)
G03 X90.062510 Y116.277345 Z-1.000000 I1.864302 J2.437933 F800.000000
G03 X93.642961 Y118.941522 Z-1.000000 I-7.288270 J13.532897
G02 X93.757272 Y118.747075 Z-1.000000 I-0.317438 J-0.317438
G02 X93.792961 Y118.491522 Z-1.000000 I-0.897097 J-0.255553
G02 X93.204786 Y117.731176 Z-1.000000 I-2.221308 J1.110654
G02 X91.242961 Y116.091522 Z-1.000000 I-39.213735 J44.925233
G02 X89.394282 Y114.935428 Z-1.000000 I-10.328497 J14.459895
G02 X87.192962 Y114.741522 Z-1.000000 I-1.323968 J2.438151
G02 X86.545027 Y115.798209 Z-1.000000 I0.385300 J0.963249
G02 X86.892962 Y116.541522 Z-1.000000 I1.199744 J-0.108496
G01 X86.742962 Y116.541522 Z-1.000000
M3 S90
G4 P1
G00 Z5.000000

(End cutting path id: path231)


(Start cutting path id: path231)
(Change tool to Default tool)

G00 Z5.000000
G00 X93.042961 Y120.291521
M5 S90
G4 P1

G01 Z-1.000000 F100.0(Penetrate)
G02 X93.152164 Y120.110639 Z-1.000000 I-0.311410 J-0.311410 F800.000000
G02 X93.192961 Y119.841522 Z-1.000000 I-0.867208 J-0.269117
G02 X89.262652 Y117.637590 Z-1.000000 I-10.236935 J13.649246
G02 X87.642962 Y117.591522 Z-1.000000 I-0.872911 J2.194267
G02 X87.057600 Y118.281530 Z-1.000000 I0.223746 J0.783110
G02 X87.192962 Y118.941522 Z-1.000000 I1.074066 J0.123590
G03 X89.376059 Y118.600241 Z-1.000000 I1.424402 J1.958553
G03 X93.042961 Y120.291521 Z-1.000000 I-5.584922 J16.929579
G01 X93.042961 Y120.291521 Z-1.000000
M3 S90
G4 P1
G00 Z5.000000

(End cutting path id: path231)


(Start cutting path id: path231)
(Change tool to Default tool)

G00 Z5.000000
G00 X87.342962 Y120.441521
M5 S90
G4 P1

G01 Z-1.000000 F100.0(Penetrate)
G02 X86.656471 Y121.362693 Z-1.000000 I0.451096 J1.052558 F800.000000
G02 X86.742962 Y122.691521 Z-1.000000 I3.694845 J0.426740
G03 X88.490126 Y121.929856 Z-1.000000 I2.115600 J2.468199
G03 X92.442961 Y122.241521 Z-1.000000 I1.175914 J10.308581
G02 X92.573712 Y121.959284 Z-1.000000 I-0.319346 J-0.319346
G02 X92.592961 Y121.491521 Z-1.000000 I-5.673615 J-0.467762
G03 X90.356667 Y120.438710 Z-1.000000 I23.048832 J-51.859871
G02 X87.342962 Y120.441521 Z-1.000000 I-1.504034 J3.022154
G01 X87.342962 Y120.441521 Z-1.000000
M3 S90
G4 P1
G00 Z5.000000

(End cutting path id: path231)


(Start cutting path id: path231)
(Change tool to Default tool)

G00 Z5.000000
G00 X102.792961 Y100.341522
M5 S90
G4 P1

G01 Z-1.000000 F100.0(Penetrate)
G03 X99.679290 Y94.986830 Z-1.000000 I65.282237 J-41.543242 F800.000000
G03 X99.192961 Y94.041523 Z-1.000000 I40.835325 J-21.606134
G01 X99.042961 Y94.041523 Z-1.000000
G03 X97.691277 Y95.652970 Z-1.000000 I-35.375632 J-28.300505
G02 X94.092961 Y100.341522 Z-1.000000 I33.356149 J29.324862
G03 X91.242448 Y103.594779 Z-1.000000 I-17.129014 J-12.133052
G03 X87.942962 Y106.041522 Z-1.000000 I-12.726567 J-13.713967
G02 X90.891965 Y103.033440 Z-1.000000 I-6.355705 J-9.180463
G02 X95.892961 Y95.241523 Z-1.000000 I-255.346582 J-169.386966
G02 X94.172098 Y96.171232 Z-1.000000 I13.805824 J27.611649
G02 X92.592961 Y97.191523 Z-1.000000 I10.146065 J17.435572
G03 X90.265756 Y102.203279 Z-1.000000 I-55.126454 J-22.551731
G03 X87.642962 Y106.191522 Z-1.000000 I-21.067722 J-10.998261
G02 X88.309121 Y106.100532 Z-1.000000 I-0.000000 J-2.484049
G02 X88.992962 Y105.891522 Z-1.000000 I-3.816391 J-13.709706
G02 X92.683544 Y103.451412 Z-1.000000 I-4.886285 J-11.401331
G02 X98.442961 Y97.491523 Z-1.000000 I-73.458445 J-76.750318
G02 X104.659743 Y104.761939 Z-1.000000 I1044.922746 J-887.198558
G02 X106.242961 Y106.341522 Z-1.000000 I11.215539 J-9.658125
G02 X107.606162 Y107.228680 Z-1.000000 I3.786605 J-4.327549
G02 X108.342961 Y107.391522 Z-1.000000 I0.736799 J-1.585452
G03 X106.791827 Y101.392723 Z-1.000000 I35.852886 J-12.470569
G03 X105.492961 Y92.241523 Z-1.000000 I150.140157 J-25.977759
G02 X103.292425 Y92.570106 Z-1.000000 I2.280633 J22.806326
G02 X101.292961 Y92.991523 Z-1.000000 I18.252272 J91.554232
G02 X102.062265 Y94.975038 Z-1.000000 I20.928855 J-6.976285
G02 X103.092961 Y97.041523 Z-1.000000 I23.751839 J-10.556373
G02 X105.217446 Y101.552554 Z-1.000000 I413.307430 J-191.892735
G02 X107.742961 Y106.791522 Z-1.000000 I732.369677 J-349.820354
G03 X105.120063 Y103.531678 Z-1.000000 I51.111675 J-43.810007
G03 X102.642961 Y100.041523 Z-1.000000 I58.445668 J-44.105335
G01 X102.792961 Y100.341522 Z-1.000000
M3 S90
G4 P1
G00 Z5.000000

(End cutting path id: path231)


(Start cutting path id: path231)
(Change tool to Default tool)

G00 Z5.000000
G00 X106.392961 Y116.391522
M5 S90
G4 P1

G01 Z-1.000000 F100.0(Penetrate)
G01 X108.492961 Y116.391522 Z-1.000000 F800.000000
G02 X108.657763 Y116.309785 Z-1.000000 I0.000000 J-0.207011
G02 X108.642961 Y116.091522 Z-1.000000 I-0.132413 J-0.100653
G01 X108.642961 Y116.091522 Z-1.000000
G01 X107.292961 Y116.091522 Z-1.000000
G01 X107.292961 Y116.091522 Z-1.000000
G01 X107.292961 Y116.091522 Z-1.000000
G01 X107.292961 Y115.941522 Z-1.000000
G01 X108.642961 Y115.641522 Z-1.000000
G02 X108.371061 Y114.750944 Z-1.000000 I-8.801628 J2.200407
G02 X107.892961 Y114.141522 Z-1.000000 I-1.166092 J0.422566
G02 X105.126476 Y113.572119 Z-1.000000 I-1.815512 J1.815512
G03 X102.792961 Y114.291522 Z-1.000000 I-5.632278 J-14.125029
G02 X101.488272 Y114.727057 Z-1.000000 I493.257056 J1479.771168
G02 X100.392961 Y115.491522 Z-1.000000 I0.748772 J2.239731
G02 X99.331131 Y117.148371 Z-1.000000 I4.991619 J4.367667
G02 X98.142961 Y120.141522 Z-1.000000 I34.068483 J15.256334
G03 X97.700125 Y121.319573 Z-1.000000 I-3.821705 J-0.764341
G03 X96.942961 Y121.641521 Z-1.000000 I-0.591648 J-0.340117
G03 X96.844989 Y120.664083 Z-1.000000 I0.548619 J-0.548619
G02 X97.092961 Y119.841522 Z-1.000000 I-1.240295 J-0.822562
G02 X96.449573 Y119.945929 Z-1.000000 I0.000000 J2.034571
G02 X95.742961 Y120.291521 Z-1.000000 I0.937007 J2.811021
G02 X95.026497 Y121.839202 Z-1.000000 I2.787760 J2.230208
G02 X94.842961 Y123.741521 Z-1.000000 I9.766871 J1.902319
G03 X101.151200 Y127.316475 Z-1.000000 I-4.687199 J15.623995
G02 X109.992961 Y129.291521 Z-1.000000 I6.145864 J-6.734773
G03 X110.030334 Y127.713937 Z-1.000000 I33.314384 J0.000000
G03 X110.142960 Y126.291521 Z-1.000000 I22.525136 J1.067863
G03 X110.556329 Y123.832943 Z-1.000000 I29.305475 J3.663184
G02 X111.192960 Y120.741521 Z-1.000000 I-270.857469 J-57.390242
G02 X111.221676 Y120.524843 Z-1.000000 I-0.300000 J-0.150000
G02 X111.042960 Y120.291521 Z-1.000000 I-0.328716 J0.066679
G03 X109.424786 Y120.003942 Z-1.000000 I12.586887 J-75.521324
G03 X108.942961 Y119.841522 Z-1.000000 I0.341621 J-1.809314
G03 X108.821958 Y119.750062 Z-1.000000 I0.000000 J-0.125774
G03 X108.792961 Y119.541522 Z-1.000000 I0.735371 J-0.208541
G01 X108.792961 Y117.591522 Z-1.000000
G02 X108.744878 Y117.189604 Z-1.000000 I-1.703835 J-0.000000
G02 X108.492961 Y116.991522 Z-1.000000 I-0.251917 J0.061150
G01 X106.392961 Y116.991522 Z-1.000000
G03 X106.156660 Y116.876351 Z-1.000000 I-0.000000 J-0.300000
G03 X106.092961 Y116.691522 Z-1.000000 I0.236301 J-0.184829
G03 X106.156660 Y116.506693 Z-1.000000 I0.300000 J-0.000000
G03 X106.392961 Y116.391522 Z-1.000000 I0.236301 J0.184829
G01 X106.392961 Y116.391522 Z-1.000000
M3 S90
G4 P1
G00 Z5.000000

(End cutting path id: path231)


(Start cutting path id: path231)
(Change tool to Default tool)

G00 Z5.000000
G00 X110.592960 Y134.841521
M5 S90
G4 P1

G01 Z-1.000000 F100.0(Penetrate)
G01 X109.242961 Y135.291521 Z-1.000000 F800.000000
G03 X103.312457 Y139.607325 Z-1.000000 I-7.412630 J-3.953403
G03 X95.442961 Y138.891521 Z-1.000000 I-2.631731 J-14.683178
G03 X90.057993 Y134.819087 Z-1.000000 I4.575437 J-11.646568
G03 X87.342962 Y129.291521 Z-1.000000 I12.741489 J-9.688936
G03 X86.510390 Y128.852573 Z-1.000000 I0.479761 J-1.919044
G03 X85.542962 Y127.941521 Z-1.000000 I14.694500 J-16.572980
G02 X82.623149 Y127.965934 Z-1.000000 I0.000000 J174.619288
G02 X81.042962 Y128.091521 Z-1.000000 I0.211887 J12.670104
G02 X80.152480 Y128.156055 Z-1.000000 I0.000000 J6.175987
G02 X79.692962 Y128.841521 Z-1.000000 I0.080216 J0.550532
G02 X81.171756 Y133.741813 Z-1.000000 I35.881002 J-8.154773
G02 X83.442962 Y138.291521 Z-1.000000 I23.737638 J-9.008038
G03 X84.814842 Y137.879660 Z-1.000000 I1.871436 J3.742872
G03 X86.592962 Y137.841521 Z-1.000000 I1.082590 J9.003747
G03 X88.827377 Y138.492857 Z-1.000000 I-0.746615 J6.719537
G03 X93.811711 Y141.085271 Z-1.000000 I-53.900951 J109.721065
G03 X98.875623 Y143.975749 Z-1.000000 I-87.323177 J158.865057
G02 X99.792961 Y144.441521 Z-1.000000 I4.040284 J-6.821100
G02 X103.990788 Y144.057332 Z-1.000000 I1.640927 J-5.196268
G02 X106.242961 Y142.491521 Z-1.000000 I-5.415480 J-10.191921
G02 X107.098754 Y141.548249 Z-1.000000 I-9.271722 J-9.271722
G03 X111.492960 Y136.941521 Z-1.000000 I33.451151 J27.508843
G03 X113.878814 Y134.742698 Z-1.000000 I28.142685 J28.142674
G02 X119.292960 Y128.991521 Z-1.000000 I-22.924836 J-27.005413
G03 X118.896199 Y128.950611 Z-1.000000 I0.000000 J-1.944428
G02 X116.892960 Y128.541521 Z-1.000000 I-51.519921 J247.174320
G02 X114.726462 Y128.263245 Z-1.000000 I-10.914760 J76.403319
G02 X111.792960 Y127.941521 Z-1.000000 I-38.372135 J336.345296
G02 X111.805294 Y128.413861 Z-1.000000 I9.050863 J0.000000
G02 X111.942960 Y129.141521 Z-1.000000 I2.752109 J-0.143821
G02 X112.409279 Y130.761572 Z-1.000000 I6.049875 J-0.864268
G03 X113.142960 Y132.441521 Z-1.000000 I-121.880397 J54.228840
G03 X112.491880 Y134.311517 Z-1.000000 I-1.322635 J0.587838
G03 X110.892960 Y134.991521 Z-1.000000 I-5.021053 J-9.586398
G01 X110.592960 Y134.841521 Z-1.000000
M3 S90
G4 P1
G00 Z5.000000

(End cutting path id: path231)


(Start cutting path id: path231)
(Change tool to Default tool)

G00 Z5.000000
G00 X124.392960 Y138.291521
M5 S90
G4 P1

G01 Z-1.000000 F100.0(Penetrate)
G01 X122.742960 Y138.291521 Z-1.000000 F800.000000
G01 X122.592960 Y138.291521 Z-1.000000
G01 X122.592960 Y140.541521 Z-1.000000
G02 X123.481262 Y141.037245 Z-1.000000 I1.052241 J-0.841792
G02 X124.692960 Y140.991521 Z-1.000000 I0.463894 J-3.784742
G01 X124.692960 Y138.441521 Z-1.000000
G02 X124.548263 Y138.211218 Z-1.000000 I-0.255628 J-0.000000
G02 X124.242960 Y138.141521 Z-1.000000 I-0.305304 J0.633839
G01 X124.392960 Y138.291521 Z-1.000000
M3 S90
G4 P1
G00 Z5.000000

(End cutting path id: path231)


(Start cutting path id: path231)
(Change tool to Default tool)

G00 Z5.000000
G00 X124.542960 Y131.091521
M5 S90
G4 P1

G01 Z-1.000000 F100.0(Penetrate)
G01 X124.542960 Y129.741521 Z-1.000000 F800.000000
G01 X124.242960 Y129.741521 Z-1.000000
G02 X123.207907 Y129.609088 Z-1.000000 I-1.460055 J7.300273
G02 X122.592960 Y129.591521 Z-1.000000 I-0.614947 J10.754592
G01 X122.592960 Y131.391521 Z-1.000000
G02 X122.816505 Y131.576098 Z-1.000000 I1.078325 J-1.078325
G02 X123.192960 Y131.691521 Z-1.000000 I0.376454 J-0.556196
G01 X124.542960 Y131.241521 Z-1.000000
G01 X124.542960 Y131.091521 Z-1.000000
M3 S90
G4 P1
G00 Z5.000000

(End cutting path id: path231)


(Start cutting path id: path231)
(Change tool to Default tool)

G00 Z5.000000
G00 X122.592960 Y133.341521
M5 S90
G4 P1

G01 Z-1.000000 F100.0(Penetrate)
G01 X122.592960 Y136.191521 Z-1.000000 F800.000000
G01 X122.592960 Y136.341521 Z-1.000000
G02 X122.873125 Y136.574873 Z-1.000000 I0.406589 J-0.203294
G02 X123.342960 Y136.641521 Z-1.000000 I0.469835 J-1.622727
G01 X124.242960 Y136.641521 Z-1.000000
G02 X124.599269 Y136.425103 Z-1.000000 I0.000000 J-0.401521
G02 X124.692960 Y136.041521 Z-1.000000 I-0.738367 J-0.383582
G01 X124.692960 Y133.041521 Z-1.000000
G02 X123.576815 Y133.003408 Z-1.000000 I-0.768716 J6.149725
G02 X122.592960 Y133.191521 Z-1.000000 I0.211992 J3.775654
G01 X122.592960 Y133.341521 Z-1.000000
M3 S90
G4 P1
G00 Z5.000000

(End cutting path id: path231)


(Start cutting path id: path231)
(Change tool to Default tool)

G00 Z5.000000
G00 X124.692960 Y144.741521
M5 S90
G4 P1

G01 Z-1.000000 F100.0(Penetrate)
G02 X124.767960 Y144.891521 Z-1.000000 I0.187500 J-0.000000 F800.000000
G03 X124.842960 Y145.041521 Z-1.000000 I-0.112500 J0.150000
G01 X124.842960 Y142.791521 Z-1.000000
G02 X124.222451 Y142.513367 Z-1.000000 I-1.137359 J1.706038
G03 X123.642960 Y142.341521 Z-1.000000 I2.276867 J-8.740918
G03 X124.249940 Y143.661781 Z-1.000000 I-19.863795 J9.931897
G03 X124.692960 Y144.741521 Z-1.000000 I-60.782064 J25.569773
G01 X124.692960 Y144.741521 Z-1.000000
M3 S90
G4 P1
G00 Z5.000000

(End cutting path id: path231)


(Start cutting path id: path231)
(Change tool to Default tool)

G00 Z5.000000
G00 X124.542960 Y144.891521
M5 S90
G4 P1

G01 Z-1.000000 F100.0(Penetrate)
G02 X124.030706 Y143.767204 Z-1.000000 I-12.206749 J4.882700 F800.000000
G02 X123.192960 Y142.341521 Z-1.000000 I-12.968094 J6.661215
G01 X122.592960 Y142.341521 Z-1.000000
G01 X122.592960 Y144.441521 Z-1.000000
G02 X123.948366 Y145.037537 Z-1.000000 I1.443500 J-1.443500
G03 X124.542960 Y145.191521 Z-1.000000 I-0.063502 J1.470175
G02 X124.510704 Y145.054882 Z-1.000000 I-0.305534 J0.000000
G02 X124.392960 Y144.891521 Z-1.000000 I-0.562210 J0.281105
G01 X124.542960 Y144.891521 Z-1.000000
M3 S90
G4 P1
G00 Z5.000000

(End cutting path id: path231)


(Start cutting path id: path231)
(Change tool to Default tool)

G00 Z5.000000
G00 X86.742962 Y142.491521
M5 S90
G4 P1

G01 Z-1.000000 F100.0(Penetrate)
G02 X96.175243 Y149.621877 Z-1.000000 I23.186023 J-20.867420 F800.000000
G02 X107.442961 Y152.691521 Z-1.000000 I13.586777 J-27.657896
G02 X119.087080 Y151.107615 Z-1.000000 I1.719540 J-30.951723
G02 X129.342960 Y145.191521 Z-1.000000 I-9.667234 J-28.606306
G02 X135.563741 Y137.551245 Z-1.000000 I-22.228299 J-24.451129
G02 X138.942959 Y128.541521 Z-1.000000 I-23.806568 J-14.067545
G03 X132.130384 Y129.309372 Z-1.000000 I-148.862299 J-1290.139923
G03 X126.642960 Y129.741521 Z-1.000000 I-9.709982 J-88.241576
G01 X126.642960 Y133.191521 Z-1.000000
G01 X126.492960 Y133.341521 Z-1.000000
G01 X126.492960 Y138.591521 Z-1.000000
G01 X126.342960 Y138.741521 Z-1.000000
G01 X126.342960 Y139.191521 Z-1.000000
G03 X129.095891 Y135.328118 Z-1.000000 I143.766123 J99.530393
G03 X134.142959 Y132.141521 Z-1.000000 I6.571874 J4.818634
G03 X135.824353 Y131.876383 Z-1.000000 I1.816315 J6.054382
G03 X137.892959 Y131.991521 Z-1.000000 I0.287634 J13.472428
G03 X137.817959 Y132.216521 Z-1.000000 I-0.375000 J-0.000000
G02 X137.742959 Y132.441521 Z-1.000000 I0.300000 J0.225000
G02 X135.924014 Y132.331789 Z-1.000000 I-1.430610 J8.583662
G02 X134.142959 Y132.591521 Z-1.000000 I0.401600 J8.990350
G02 X129.257043 Y135.772793 Z-1.000000 I1.542255 J7.711274
G03 X126.192960 Y140.091521 Z-1.000000 I-679.627811 J-478.941078
G01 X126.192960 Y142.941521 Z-1.000000
G01 X126.042960 Y143.091521 Z-1.000000
G01 X126.042960 Y144.891521 Z-1.000000
G03 X129.406534 Y138.588771 Z-1.000000 I53.745594 J24.633397
G03 X135.642959 Y134.241521 Z-1.000000 I8.100694 J4.974081
G03 X136.326958 Y134.110464 Z-1.000000 I0.833881 J2.501644
G03 X136.992959 Y134.091521 Z-1.000000 I0.666001 J11.698393
G03 X136.917959 Y134.316521 Z-1.000000 I-0.375000 J0.000000
G02 X136.842959 Y134.541521 Z-1.000000 I0.300000 J0.225000
G02 X136.333001 Y134.552123 Z-1.000000 I0.000000 J12.269907
G02 X135.792959 Y134.691521 Z-1.000000 I0.055331 J1.330143
G02 X132.798432 Y136.208239 Z-1.000000 I1.299230 J6.279606
G02 X129.811710 Y139.472771 Z-1.000000 I15.427939 J17.113574
G02 X127.256555 Y143.412502 Z-1.000000 I27.036740 J20.333415
G02 X126.192960 Y145.491521 Z-1.000000 I30.928128 J17.133947
G01 X126.192960 Y146.841521 Z-1.000000
G01 X125.592960 Y147.291521 Z-1.000000
G01 X125.592960 Y147.291521 Z-1.000000
G01 X125.592960 Y147.291521 Z-1.000000
G01 X125.592960 Y147.291521 Z-1.000000
G01 X125.592960 Y147.291521 Z-1.000000
G01 X124.692960 Y147.141521 Z-1.000000
G01 X124.692960 Y146.841521 Z-1.000000
G02 X123.863668 Y146.453740 Z-1.000000 I-1.342030 J1.789373
G02 X122.592960 Y146.241521 Z-1.000000 I-2.245325 J9.533947
G01 X122.442960 Y146.391521 Z-1.000000
G01 X121.842960 Y146.241521 Z-1.000000
G01 X121.692960 Y146.241521 Z-1.000000
G02 X121.378093 Y145.573740 Z-1.000000 I-2.953584 J0.984528
G02 X113.592960 Y137.241521 Z-1.000000 I-25.321380 J15.855707
G02 X108.206887 Y142.900613 Z-1.000000 I8625.448495 J8214.712903
G03 X107.142961 Y143.991521 Z-1.000000 I-44.094028 J-41.939194
G03 X103.301027 Y146.380859 Z-1.000000 I-8.869431 J-9.978109
G03 X99.492961 Y146.391521 Z-1.000000 I-1.917253 J-4.716369
G01 X97.692961 Y145.491521 Z-1.000000
G02 X88.001595 Y140.205114 Z-1.000000 I-659.725851 J1197.923255
G02 X86.292962 Y139.641521 Z-1.000000 I-2.432319 J4.502207
G02 X84.627627 Y139.770516 Z-1.000000 I-0.543157 J3.802101
G02 X84.342962 Y139.941521 Z-1.000000 I0.200454 J0.656124
G02 X85.317962 Y141.216521 Z-1.000000 I10.304999 J-6.870000
G03 X86.292962 Y142.491521 Z-1.000000 I-9.330000 J8.145000
G01 X86.742962 Y142.491521 Z-1.000000
M3 S90
G4 P1
G00 Z5.000000

(End cutting path id: path231)


(Start cutting path id: path231)
(Change tool to Default tool)

G00 Z5.000000
G00 X141.042959 Y124.491521
M5 S90
G4 P1

G01 Z-1.000000 F100.0(Penetrate)
G03 X137.908018 Y136.440170 Z-1.000000 I-30.582800 J-1.638364 F800.000000
G03 X130.392959 Y146.241521 Z-1.000000 I-28.638164 J-14.176228
G03 X119.714249 Y152.444019 Z-1.000000 I-20.959908 J-23.792328
G03 X107.442961 Y154.041521 Z-1.000000 I-10.060653 J-29.351399
G03 X95.494312 Y150.906579 Z-1.000000 I1.638364 J-30.582797
G03 X85.692962 Y143.391521 Z-1.000000 I14.176230 J-28.638165
G03 X79.490464 Y132.712810 Z-1.000000 I23.792327 J-20.959907
G03 X77.892962 Y120.441521 Z-1.000000 I29.351401 J-10.060653
G03 X81.027903 Y108.492873 Z-1.000000 I30.582797 J1.638364
G03 X88.542962 Y98.691523 Z-1.000000 I28.638165 J14.176230
G03 X99.221672 Y92.489025 Z-1.000000 I20.959908 J23.792328
G03 X111.492960 Y90.891523 Z-1.000000 I10.060653 J29.351399
G03 X123.441609 Y94.026464 Z-1.000000 I-1.638364 J30.582797
G03 X133.242959 Y101.541522 Z-1.000000 I-14.176230 J28.638165
G03 X139.467126 Y112.222928 Z-1.000000 I-23.987729 J21.132047
G03 X141.192959 Y124.491521 Z-1.000000 I-30.479748 J10.543294
G01 X141.042959 Y124.491521 Z-1.000000
M3 S90
G4 P1
G00 Z5.000000

(End cutting path id: path231)


(Start cutting path id: path229)
(Change tool to Default tool)

G00 Z5.000000
G00 X154.692952 Y116.841522
M5 S90
G4 P1

G01 Z-1.000000 F100.0(Penetrate)
G02 X152.769681 Y108.346421 Z-1.000000 I-45.474556 J5.830071 F800.000000
G02 X149.142959 Y100.191523 Z-1.000000 I-42.174302 J13.872246
G02 X144.093881 Y92.872652 Z-1.000000 I-36.738263 J19.943629
G02 X137.742959 Y86.841523 Z-1.000000 I-32.999090 J28.389422
G02 X130.099861 Y81.889788 Z-1.000000 I-26.776997 J32.956304
G02 X121.542960 Y78.591524 Z-1.000000 I-20.792037 J41.193138
G02 X103.854709 Y77.206666 Z-1.000000 I-12.317444 J43.670939
G02 X86.742962 Y82.641523 Z-1.000000 I5.658955 J47.473076
G02 X79.424092 Y87.690601 Z-1.000000 I19.943629 J36.738263
G02 X73.392962 Y94.041523 Z-1.000000 I28.389422 J32.999090
G02 X68.441227 Y101.684620 Z-1.000000 I32.956304 J26.776997
G02 X65.142963 Y110.241522 Z-1.000000 I41.193138 J20.792037
G02 X69.269789 Y144.965502 Z-1.000000 I43.712370 J12.412154
G02 X96.792961 Y166.641519 Z-1.000000 I40.095098 J-22.599028
G02 X105.822501 Y168.205022 Z-1.000000 I12.556107 J-45.658571
G02 X114.942960 Y167.991519 Z-1.000000 I3.473828 J-46.515878
G02 X123.438060 Y166.068248 Z-1.000000 I-5.830066 J-45.474517
G02 X131.592959 Y162.441520 Z-1.000000 I-13.872215 J-42.174186
G02 X138.911830 Y157.392442 Z-1.000000 I-19.943629 J-36.738263
G02 X144.942959 Y151.041521 Z-1.000000 I-28.389422 J-32.999090
G02 X149.894691 Y143.398423 Z-1.000000 I-32.956207 J-26.776918
G02 X153.192952 Y134.841521 Z-1.000000 I-41.193265 J-20.792071
G02 X154.756455 Y125.811981 Z-1.000000 I-45.658571 J-12.556107
G02 X154.542952 Y116.691522 Z-1.000000 I-46.515878 J-3.473828
G01 X154.692952 Y116.841522 Z-1.000000
M3 S90
G4 P1
G00 Z5.000000

(End cutting path id: path229)


(Start cutting path id: path229)
(Change tool to Default tool)

G00 Z5.000000
G00 X154.692952 Y135.291521
M5 S90
G4 P1

G01 Z-1.000000 F100.0(Penetrate)
G03 X151.180177 Y144.097488 Z-1.000000 I-48.045118 J-14.061986 F800.000000
G03 X146.142959 Y151.941521 Z-1.000000 I-43.054971 J-22.109302
G03 X139.881946 Y158.441135 Z-1.000000 I-34.417678 J-26.888811
G03 X132.342959 Y163.641520 Z-1.000000 I-30.561436 J-36.240023
G03 X124.002235 Y167.323039 Z-1.000000 I-24.247895 J-43.646222
G03 X115.092960 Y169.341519 Z-1.000000 I-14.369008 J-42.751327
G03 X105.635145 Y169.561985 Z-1.000000 I-5.883513 J-49.421507
G03 X96.492961 Y167.991519 Z-1.000000 I3.395829 J-47.163243
G03 X68.171890 Y145.646327 Z-1.000000 I12.739826 J-45.267047
G03 X63.942963 Y109.791522 Z-1.000000 I41.283259 J-23.045987
G03 X67.455738 Y100.985557 Z-1.000000 I48.045076 J14.061973
G03 X72.492962 Y93.141523 Z-1.000000 I43.054853 J22.109249
G03 X78.753975 Y86.641909 Z-1.000000 I34.417678 J26.888811
G03 X86.292962 Y81.441523 Z-1.000000 I30.561436 J36.240023
G03 X94.665804 Y77.738890 Z-1.000000 I24.534228 J44.161611
G03 X103.392961 Y75.741524 Z-1.000000 I14.253577 J42.213997
G03 X112.850776 Y75.521058 Z-1.000000 I5.883513 J49.421507
G03 X121.992960 Y77.091524 Z-1.000000 I-3.395829 J47.163243
G03 X130.787463 Y80.538311 Z-1.000000 I-11.008157 J41.030402
G03 X138.642959 Y85.641523 Z-1.000000 I-23.976793 J45.505732
G03 X145.142573 Y91.902537 Z-1.000000 I-26.888796 J34.417659
G03 X150.342952 Y99.441523 Z-1.000000 I-36.239876 J30.561304
G03 X154.024472 Y107.782247 Z-1.000000 I-43.646200 J24.247889
G03 X156.042952 Y116.691522 Z-1.000000 I-42.751322 J14.369007
G03 X156.263418 Y126.149336 Z-1.000000 I-49.421507 J5.883513
G03 X154.692952 Y135.291521 Z-1.000000 I-47.163255 J-3.395830
G01 X154.692952 Y135.291521 Z-1.000000
M3 S90
G4 P1
G00 Z5.000000

(End cutting path id: path229)


(Start cutting path id: path227)
(Change tool to Default tool)

G00 Z5.000000
G00 X121.992960 Y92.241523
M5 S90
G4 P1

G01 Z-1.000000 F100.0(Penetrate)
G02 X96.820071 Y92.168223 Z-1.000000 I-12.674499 J30.203061 F800.000000
G02 X78.942962 Y109.941522 Z-1.000000 I12.620121 J30.571244
G02 X76.369489 Y122.455866 Z-1.000000 I29.606228 J12.610060
G02 X78.792962 Y135.141522 Z-1.000000 I33.885640 J0.100791
G02 X85.848180 Y145.861302 Z-1.000000 I30.635404 J-12.481091
G02 X96.492961 Y152.991521 Z-1.000000 I22.614989 J-22.251200
G02 X121.665850 Y153.064821 Z-1.000000 I12.674499 J-30.203061
G02 X139.542959 Y135.291521 Z-1.000000 I-12.620121 J-30.571244
G02 X139.675907 Y110.206739 Z-1.000000 I-29.997704 J-12.701730
G02 X121.842960 Y92.241523 Z-1.000000 I-30.659607 J12.600442
G01 X121.992960 Y92.241523 Z-1.000000
M3 S90
G4 P1
G00 Z5.000000

(End cutting path id: path227)


(Start cutting path id: path227)
(Change tool to Default tool)

G00 Z5.000000
G00 X140.142959 Y135.441521
M5 S90
G4 P1

G01 Z-1.000000 F100.0(Penetrate)
G03 X122.062534 Y153.443361 Z-1.000000 I-30.726520 J-12.780057 F800.000000
G03 X96.492961 Y153.291521 Z-1.000000 I-12.603066 J-30.677159
G03 X85.711145 Y145.998338 Z-1.000000 I12.723625 J-30.426060
G03 X78.492962 Y135.141522 Z-1.000000 I24.516099 J-24.127516
G03 X76.009321 Y122.391521 Z-1.000000 I29.620874 J-12.386910
G03 X78.642962 Y109.641522 Z-1.000000 I34.043468 J0.385019
G03 X96.723387 Y91.639682 Z-1.000000 I30.726520 J12.780057
G03 X122.292960 Y91.791523 Z-1.000000 I12.603066 J30.677159
G03 X140.294800 Y109.871948 Z-1.000000 I-12.780057 J30.726520
G03 X140.142959 Y135.441521 Z-1.000000 I-30.677161 J12.603066
G01 X140.142959 Y135.441521 Z-1.000000
M3 S90
G4 P1
G00 Z5.000000

(End cutting path id: path227)


(Start cutting path id: path225)
(Change tool to Default tool)

G00 Z5.000000
G00 X149.892959 Y105.441522
M5 S90
G4 P1

G01 Z-1.000000 F100.0(Penetrate)
G02 X145.845015 Y97.947231 Z-1.000000 I-43.385893 J18.593954 F800.000000
G02 X140.442959 Y91.341523 Z-1.000000 I-35.650669 J23.642905
G02 X133.683566 Y85.753703 Z-1.000000 I-32.824741 J32.824741
G02 X125.892960 Y81.591523 Z-1.000000 I-23.544658 J34.697815
G02 X109.125497 Y78.312525 Z-1.000000 I-16.402786 J39.366686
G02 X92.142961 Y81.741523 Z-1.000000 I0.390831 J45.704190
G02 X84.648670 Y85.789467 Z-1.000000 I18.593954 J43.385893
G02 X78.042962 Y91.191523 Z-1.000000 I23.642905 J35.650669
G02 X72.455142 Y97.950916 Z-1.000000 I32.824741 J32.824741
G02 X68.292963 Y105.741522 Z-1.000000 I34.697815 J23.544658
G02 X68.475779 Y139.482655 Z-1.000000 I40.940747 J16.649237
G02 X92.442961 Y163.191520 Z-1.000000 I40.518694 J-16.991572
G02 X126.184094 Y163.008704 Z-1.000000 I16.649236 J-40.940748
G02 X149.892959 Y139.041521 Z-1.000000 I-16.991571 J-40.518693
G02 X153.150275 Y122.166521 Z-1.000000 I-40.158711 J-16.503557
G02 X149.742959 Y105.291522 Z-1.000000 I-45.415338 J0.388548
G01 X149.892959 Y105.441522 Z-1.000000
M3 S90
G4 P1
G00 Z5.000000

(End cutting path id: path225)


(Start cutting path id: path225)
(Change tool to Default tool)

G00 Z5.000000
G00 X92.442961 Y163.791520
M5 S90
G4 P1

G01 Z-1.000000 F100.0(Penetrate)
G03 X68.132735 Y139.736110 Z-1.000000 I16.871088 J-41.361377 F800.000000
G03 X67.992963 Y105.741522 Z-1.000000 I40.847128 J-17.165529
G03 X72.149932 Y97.872154 Z-1.000000 I40.968540 J16.608868
G03 X77.742962 Y91.041523 Z-1.000000 I37.081170 J24.657508
G03 X84.326634 Y85.670680 Z-1.000000 I29.761265 J29.761265
G03 X91.992961 Y81.591523 Z-1.000000 I25.421632 J38.533574
G03 X109.039534 Y78.102895 Z-1.000000 I17.140864 J40.363971
G03 X126.042960 Y81.441523 Z-1.000000 I0.095643 J44.480900
G03 X133.912327 Y85.598493 Z-1.000000 I-16.608868 J40.968540
G03 X140.742959 Y91.191523 Z-1.000000 I-24.657508 J37.081170
G03 X146.113801 Y97.775196 Z-1.000000 I-29.761245 J29.761245
G03 X150.192952 Y105.441522 Z-1.000000 I-38.533401 J25.421509
G03 X152.765722 Y113.709565 Z-1.000000 I-42.980672 J17.908613
G03 X153.642952 Y122.091521 Z-1.000000 I-39.606261 J8.381956
G03 X152.887613 Y130.964257 Z-1.000000 I-40.574816 J1.014370
G03 X150.342952 Y139.491521 Z-1.000000 I-45.943897 J-9.067018
G03 X126.375307 Y163.741769 Z-1.000000 I-41.294188 J-16.843671
G03 X92.292961 Y163.941520 Z-1.000000 I-17.281984 J-40.988236
G01 X92.442961 Y163.791520 Z-1.000000
M3 S90
G4 P1
G00 Z5.000000

(End cutting path id: path225)


(Start cutting path id: path223)
(Change tool to Default tool)

G00 Z5.000000
G00 X150.192952 Y126.141521
M5 S90
G4 P1

G01 Z-1.000000 F100.0(Penetrate)
G01 X145.392959 Y125.991521 Z-1.000000 F800.000000
G02 X144.752014 Y126.142828 Z-1.000000 I-0.000000 J1.433195
G02 X144.492959 Y126.441521 Z-1.000000 I0.231027 J0.462054
G01 X144.042959 Y126.441521 Z-1.000000
G01 X144.192959 Y121.641521 Z-1.000000
G01 X144.192959 Y121.641521 Z-1.000000
G01 X144.192959 Y121.641521 Z-1.000000
G01 X145.242959 Y121.491521 Z-1.000000
G01 X145.242959 Y122.091521 Z-1.000000
G02 X144.836460 Y122.613848 Z-1.000000 I0.581004 J0.871506
G02 X144.642959 Y123.741521 Z-1.000000 I3.189140 J1.127673
G01 X144.642959 Y124.491521 Z-1.000000
G02 X144.705788 Y124.578692 Z-1.000000 I0.091886 J-0.000000
G02 X145.092959 Y124.641521 Z-1.000000 I0.387171 J-1.161512
G01 X147.942959 Y124.791521 Z-1.000000
G01 X147.942959 Y124.491521 Z-1.000000
G02 X147.845264 Y123.494824 Z-1.000000 I-5.133083 J0.000000
G02 X147.342959 Y122.991521 Z-1.000000 I-0.627820 J0.124270
G01 X147.342959 Y122.541521 Z-1.000000
G01 X149.142959 Y122.541521 Z-1.000000
G01 X149.142959 Y122.991521 Z-1.000000
G02 X148.500083 Y123.708325 Z-1.000000 I0.403389 J1.008473
G02 X148.392959 Y124.491521 Z-1.000000 I2.809449 J0.783196
G01 X148.392959 Y124.791521 Z-1.000000
G01 X151.092952 Y124.941521 Z-1.000000
G01 X151.092952 Y123.741521 Z-1.000000
G02 X151.047823 Y123.043176 Z-1.000000 I-5.425713 J-0.000000
G02 X150.642952 Y122.391521 Z-1.000000 I-0.918808 J0.119252
G01 X150.642952 Y121.791521 Z-1.000000
G01 X151.392952 Y122.091521 Z-1.000000
G01 X151.392952 Y122.091521 Z-1.000000
G01 X151.392952 Y122.091521 Z-1.000000
G01 X151.242952 Y126.591521 Z-1.000000
G01 X150.792952 Y126.591521 Z-1.000000
G02 X150.630274 Y126.304200 Z-1.000000 I-0.335071 J-0.000000
G02 X150.042952 Y126.141521 Z-1.000000 I-0.587321 J0.978869
G01 X150.192952 Y126.141521 Z-1.000000
M3 S90
G4 P1
G00 Z5.000000

(End cutting path id: path223)


(Start cutting path id: path221)
(Change tool to Default tool)

G00 Z5.000000
G00 X75.492962 Y111.741522
M5 S90
G4 P1

G01 Z-1.000000 F100.0(Penetrate)
G01 X75.792962 Y111.891522 Z-1.000000 F800.000000
G01 X75.192962 Y114.441522 Z-1.000000
G01 X74.742962 Y114.291522 Z-1.000000
G02 X74.629358 Y113.717258 Z-1.000000 I-0.750000 J-0.150000
G02 X74.142962 Y113.391522 Z-1.000000 I-0.636396 J0.424264
G01 X71.892962 Y112.791522 Z-1.000000
G01 X71.892962 Y112.941522 Z-1.000000
G02 X71.642007 Y114.067691 Z-1.000000 I5.349136 J1.783045
G02 X72.042962 Y114.741522 Z-1.000000 I0.640439 J0.075122
G01 X71.892962 Y115.191522 Z-1.000000
G01 X70.242962 Y114.741522 Z-1.000000
G01 X70.392962 Y114.291522 Z-1.000000
G02 X70.976483 Y113.984959 Z-1.000000 I-0.000000 J-0.708626
G02 X71.442962 Y112.791522 Z-1.000000 I-2.307100 J-1.589663
G01 X71.442962 Y112.641522 Z-1.000000
G01 X69.192963 Y112.041522 Z-1.000000
G02 X68.977997 Y112.076406 Z-1.000000 I-0.083283 J0.166566
G02 X68.742963 Y112.491522 Z-1.000000 I0.631833 J0.631833
G02 X68.318728 Y114.002937 Z-1.000000 I15.485318 J5.161773
G02 X68.442963 Y115.041522 Z-1.000000 I1.508959 J0.346222
G01 X68.292963 Y115.491522 Z-1.000000
G01 X67.542963 Y115.041522 Z-1.000000
G01 X67.542963 Y115.041522 Z-1.000000
G01 X67.542963 Y115.041522 Z-1.000000
G01 X68.742963 Y110.241522 Z-1.000000
G01 X69.192963 Y110.391522 Z-1.000000
G02 X69.287160 Y110.790547 Z-1.000000 I0.369916 J0.123305
G02 X69.942963 Y111.141522 Z-1.000000 I0.907497 J-0.907497
G01 X74.442962 Y112.341522 Z-1.000000
G02 X75.188192 Y112.323766 Z-1.000000 I0.333139 J-1.665694
G02 X75.492962 Y112.041522 Z-1.000000 I-0.104711 J-0.418738
G01 X75.492962 Y111.741522 Z-1.000000
M3 S90
G4 P1
G00 Z5.000000

(End cutting path id: path221)


(Start cutting path id: path219)
(Change tool to Default tool)

G00 Z5.000000
G00 X138.942959 Y93.741523
M5 S90
G4 P1

G01 Z-1.000000 F100.0(Penetrate)
G01 X135.642959 Y94.791523 Z-1.000000 F800.000000
G01 X134.292959 Y96.291523 Z-1.000000
G02 X134.099025 Y96.873325 Z-1.000000 I0.775736 J0.581802
G02 X134.292959 Y97.341523 Z-1.000000 I0.662132 J-0.000000
G01 X133.992959 Y97.641523 Z-1.000000
G01 X132.042959 Y95.841523 Z-1.000000
G01 X132.342959 Y95.541523 Z-1.000000
G02 X132.899025 Y95.683985 Z-1.000000 I0.450000 J-0.600000
G02 X133.392959 Y95.391523 Z-1.000000 I-0.106066 J-0.742462
G03 X134.793409 Y93.852919 Z-1.000000 I1259.019071 J1144.562792
G03 X135.042959 Y93.591523 Z-1.000000 I5.762123 J5.251176
G01 X135.642959 Y91.041523 Z-1.000000
G01 X135.642959 Y91.041523 Z-1.000000
G02 X135.670891 Y90.327477 Z-1.000000 I-1.695582 J-0.423896
G02 X135.342959 Y89.691523 Z-1.000000 I-1.159001 J0.195115
G01 X135.642959 Y89.391523 Z-1.000000
G01 X136.992959 Y90.441523 Z-1.000000
G01 X136.692959 Y90.741523 Z-1.000000
G01 X136.692959 Y90.741523 Z-1.000000
G02 X136.370566 Y90.511726 Z-1.000000 I-0.846390 J0.846390
G02 X136.242959 Y90.591523 Z-1.000000 I-0.038853 J0.079797
G03 X136.207119 Y90.736566 Z-1.000000 I-0.311410 J0.000000
G03 X136.092959 Y90.891523 Z-1.000000 I-0.568163 J-0.299045
G03 X135.690444 Y92.624864 Z-1.000000 I-629.844564 J-145.348743
G03 X135.492959 Y93.441523 Z-1.000000 I-53.034917 J-12.392700
G02 X136.157026 Y93.213011 Z-1.000000 I-11.485910 J-34.457731
G02 X138.042959 Y92.541523 Z-1.000000 I-345.550290 J-973.492910
G02 X138.161110 Y92.483937 Z-1.000000 I0.000000 J-0.150000
G02 X138.192959 Y92.391523 Z-1.000000 I-0.118151 J-0.092415
G02 X138.203182 Y92.230609 Z-1.000000 I-0.086262 J-0.086262
G02 X137.892959 Y91.941523 Z-1.000000 I-1.038748 J0.803702
G01 X138.192959 Y91.641523 Z-1.000000
G01 X140.142959 Y93.591523 Z-1.000000
G01 X139.842959 Y93.891523 Z-1.000000
G02 X139.376430 Y93.646114 Z-1.000000 I-1.411731 J2.117596
G02 X139.092959 Y93.591523 Z-1.000000 I-0.283471 J0.708678
G01 X138.942959 Y93.741523 Z-1.000000
M3 S90
G4 P1
G00 Z5.000000

(End cutting path id: path219)


(Start cutting path id: path217)
(Change tool to Default tool)

G00 Z5.000000
G00 X142.842959 Y99.891523
M5 S90
G4 P1

G01 Z-1.000000 F100.0(Penetrate)
G02 X143.072496 Y98.699632 Z-1.000000 I-2.979726 J-1.191890 F800.000000
G02 X142.842959 Y97.941523 Z-1.000000 I-1.366701 J-0.000000
G02 X142.679598 Y97.873856 Z-1.000000 I-0.163361 J0.163361
G02 X142.392959 Y97.941523 Z-1.000000 I0.000000 J0.640944
G01 X138.192959 Y101.091522 Z-1.000000
G02 X137.900497 Y101.585456 Z-1.000000 I0.450000 J0.600000
G02 X138.042959 Y102.141522 Z-1.000000 I0.742462 J0.106066
G01 X138.042959 Y102.141522 Z-1.000000
G01 X137.742959 Y102.291522 Z-1.000000
G01 X136.092959 Y100.041523 Z-1.000000
G01 X136.392959 Y99.741523 Z-1.000000
G02 X136.886893 Y100.033985 Z-1.000000 I0.600000 J-0.450000
G02 X137.442959 Y99.891523 Z-1.000000 I0.106066 J-0.742462
G01 X141.642959 Y96.741523 Z-1.000000
G02 X141.843173 Y96.511431 Z-1.000000 I-0.178922 J-0.357844
G02 X141.792959 Y96.441523 Z-1.000000 I-0.050215 J-0.016920
G02 X141.178563 Y95.961311 Z-1.000000 I-1.033264 J0.688843
G02 X139.842959 Y95.841523 Z-1.000000 I-0.897947 J2.506155
G01 X139.542959 Y95.541523 Z-1.000000
G01 X141.042959 Y94.791523 Z-1.000000
G01 X144.042959 Y98.991523 Z-1.000000
G01 X142.842959 Y100.191523 Z-1.000000
G01 X142.542959 Y99.891523 Z-1.000000
G01 X142.842959 Y99.891523 Z-1.000000
M3 S90
G4 P1
G00 Z5.000000

(End cutting path id: path217)


(Start cutting path id: path215)
(Change tool to Default tool)

G00 Z5.000000
G00 X145.542959 Y103.341522
M5 S90
G4 P1

G01 Z-1.000000 F100.0(Penetrate)
G01 X141.342959 Y105.741522 Z-1.000000 F800.000000
G02 X140.972792 Y106.185604 Z-1.000000 I0.322621 J0.645241
G02 X141.042959 Y106.641522 Z-1.000000 I0.525268 J0.152518
G01 X140.742959 Y106.791522 Z-1.000000
G01 X139.542959 Y104.541522 Z-1.000000
G01 X139.842959 Y104.391522 Z-1.000000
G02 X140.235327 Y104.674325 Z-1.000000 I0.466058 J-0.233029
G02 X140.892959 Y104.541522 Z-1.000000 I0.141791 J-0.992538
G01 X145.092959 Y102.141522 Z-1.000000
G02 X145.463126 Y101.697441 Z-1.000000 I-0.322621 J-0.645241
G02 X145.392959 Y101.241522 Z-1.000000 I-0.525268 J-0.152518
G01 X145.392959 Y101.241522 Z-1.000000
G01 X145.692959 Y101.091522 Z-1.000000
G01 X145.692959 Y101.091522 Z-1.000000
G01 X146.892959 Y103.341522 Z-1.000000
G01 X146.592959 Y103.491522 Z-1.000000
G02 X146.200591 Y103.208719 Z-1.000000 I-0.466058 J0.233029
G02 X145.542959 Y103.341522 Z-1.000000 I-0.141791 J0.992538
G01 X145.542959 Y103.341522 Z-1.000000
M3 S90
G4 P1
G00 Z5.000000

(End cutting path id: path215)


(Start cutting path id: path213)
(Change tool to Default tool)

G00 Z5.000000
G00 X147.942959 Y111.291522
M5 S90
G4 P1

G01 Z-1.000000 F100.0(Penetrate)
G03 X146.288305 Y111.156668 Z-1.000000 I-0.684136 J-1.824364 F800.000000
G03 X145.092959 Y110.241522 Z-1.000000 I2.848801 J-4.959293
G01 X144.942959 Y110.091522 Z-1.000000
G02 X143.962460 Y109.218624 Z-1.000000 I-3.053588 J2.442871
G02 X142.992959 Y109.041522 Z-1.000000 I-0.707697 J1.131915
G02 X142.617161 Y109.312382 Z-1.000000 I0.646657 J1.293314
G02 X142.542959 Y109.491522 Z-1.000000 I0.179140 J0.179140
G02 X142.419023 Y110.016522 Z-1.000000 I1.050000 J0.525000
G02 X142.542959 Y110.541522 Z-1.000000 I1.173936 J-0.000000
G02 X143.332689 Y111.606268 Z-1.000000 I2.020810 J-0.673603
G02 X144.342959 Y112.041522 Z-1.000000 I1.529176 J-2.159277
G01 X144.492959 Y112.491522 Z-1.000000
G01 X143.142959 Y112.941522 Z-1.000000
G01 X142.992959 Y112.941522 Z-1.000000
G01 X142.842959 Y112.491522 Z-1.000000
G01 X142.842959 Y112.491522 Z-1.000000
G01 X142.992959 Y112.191522 Z-1.000000
G03 X142.883027 Y112.045901 Z-1.000000 I0.466393 J-0.466393
G03 X142.842959 Y111.891522 Z-1.000000 I0.277369 J-0.154379
G01 X142.692959 Y111.741522 Z-1.000000
G01 X142.242959 Y110.841522 Z-1.000000
G03 X142.288416 Y108.873250 Z-1.000000 I2.546110 J-0.925858
G03 X143.442959 Y107.691522 Z-1.000000 I2.061731 J0.859446
G03 X145.097612 Y107.826376 Z-1.000000 I0.684136 J1.824364
G03 X146.292959 Y108.741522 Z-1.000000 I-2.848801 J4.959293
G01 X146.592959 Y109.041522 Z-1.000000
G02 X147.561861 Y109.909667 Z-1.000000 I8.398664 J-8.398664
G02 X148.392959 Y110.091522 Z-1.000000 I0.598891 J-0.746970
G02 X148.768756 Y109.820662 Z-1.000000 I-0.646657 J-1.293314
G02 X148.842959 Y109.641522 Z-1.000000 I-0.179140 J-0.179140
G02 X148.955736 Y109.163790 Z-1.000000 I-0.955464 J-0.477732
G02 X148.842959 Y108.891522 Z-1.000000 I-0.385045 J-0.000000
G02 X148.148302 Y107.888449 Z-1.000000 I-2.065925 J0.688642
G02 X146.892959 Y107.541522 Z-1.000000 I-1.025115 J1.264670
G01 X146.742959 Y107.091522 Z-1.000000
G01 X148.242959 Y106.641522 Z-1.000000
G01 X148.392959 Y106.641522 Z-1.000000
G01 X148.542959 Y106.941522 Z-1.000000
G01 X148.542959 Y106.941522 Z-1.000000
G02 X148.412443 Y107.187461 Z-1.000000 I0.335809 J0.335809
G02 X148.392959 Y107.391522 Z-1.000000 I1.058841 J0.204061
G01 X148.542959 Y107.541522 Z-1.000000
G03 X148.652890 Y107.687143 Z-1.000000 I-0.466393 J0.466393
G03 X148.692959 Y107.841522 Z-1.000000 I-0.277369 J0.154379
G03 X149.062982 Y108.318976 Z-1.000000 I-1.698202 J1.698202
G03 X149.292959 Y108.741522 Z-1.000000 I-5.956766 J3.515917
G03 X149.255433 Y110.243043 Z-1.000000 I-2.417814 J0.690804
G03 X148.092959 Y111.441522 Z-1.000000 I-1.847928 J-0.629397
G01 X147.942959 Y111.291522 Z-1.000000
M3 S90
G4 P1
G00 Z5.000000

(End cutting path id: path213)


(Start cutting path id: path211)
(Change tool to Default tool)

G00 Z5.000000
G00 X150.642952 Y116.541522
M5 S90
G4 P1

G01 Z-1.000000 F100.0(Penetrate)
G02 X150.124196 Y115.652912 Z-1.000000 I-1.428196 J0.238033 F800.000000
G02 X148.992959 Y115.341522 Z-1.000000 I-0.923342 J1.143866
G02 X148.049112 Y115.920917 Z-1.000000 I0.242159 J1.452952
G02 X147.792959 Y116.991522 Z-1.000000 I1.138053 J0.838237
G03 X147.922536 Y117.667173 Z-1.000000 I-42.614005 J8.522801
G03 X147.942959 Y117.891522 Z-1.000000 I-1.222034 J0.224349
G01 X150.792952 Y117.441522 Z-1.000000
G01 X150.642952 Y116.541522 Z-1.000000
M3 S90
G4 P1
G00 Z5.000000

(End cutting path id: path211)


(Start cutting path id: path211)
(Change tool to Default tool)

G00 Z5.000000
G00 X150.042952 Y118.641522
M5 S90
G4 P1

G01 Z-1.000000 F100.0(Penetrate)
G01 X145.392959 Y119.241522 Z-1.000000 F800.000000
G02 X144.828487 Y119.543618 Z-1.000000 I0.216642 J1.083211
G02 X144.642959 Y119.991522 Z-1.000000 I0.447904 J0.447904
G01 X144.642959 Y119.991522 Z-1.000000
G01 X144.192959 Y119.991522 Z-1.000000
G01 X143.892959 Y117.591522 Z-1.000000
G01 X144.342959 Y117.591522 Z-1.000000
G02 X144.636359 Y118.007858 Z-1.000000 I0.685149 J-0.171287
G02 X145.242959 Y118.191522 Z-1.000000 I0.606600 J-0.909900
G03 X146.713820 Y117.941131 Z-1.000000 I11.877146 J65.324301
G03 X147.342959 Y117.891522 Z-1.000000 I0.629139 J3.964488
G01 X147.192959 Y117.141522 Z-1.000000
G02 X147.094005 Y116.974856 Z-1.000000 I-0.189832 J-0.000000
G02 X146.442959 Y116.691522 Z-1.000000 I-1.917994 J3.517511
G01 X143.592959 Y115.941522 Z-1.000000
G01 X143.592959 Y115.941522 Z-1.000000
G01 X143.142959 Y114.291522 Z-1.000000
G01 X143.592959 Y114.291522 Z-1.000000
G02 X143.922872 Y114.731546 Z-1.000000 I0.458399 J0.000000
G03 X144.192959 Y114.891522 Z-1.000000 I-0.177367 J0.607429
G01 X147.042959 Y115.791522 Z-1.000000
G03 X147.149025 Y115.835456 Z-1.000000 I0.000000 J0.150000
G03 X147.192959 Y115.941522 Z-1.000000 I-0.106066 J0.106066
G03 X147.440496 Y114.986630 Z-1.000000 I1.965545 J-0.000000
G03 X148.392959 Y114.291522 Z-1.000000 I1.227991 J0.682533
G03 X149.508475 Y114.522165 Z-1.000000 I0.259579 J1.557475
G03 X150.792952 Y116.691522 Z-1.000000 I-1.529094 J2.370326
G01 X151.092952 Y119.241522 Z-1.000000
G01 X150.642952 Y119.241522 Z-1.000000
G02 X150.448105 Y118.905860 Z-1.000000 I-0.386543 J0.000000
G02 X149.742959 Y118.791522 Z-1.000000 I-0.505314 J0.884813
G01 X150.042952 Y118.641522 Z-1.000000
M3 S90
G4 P1
G00 Z5.000000

(End cutting path id: path211)


(Start cutting path id: path209)
(Change tool to Default tool)

G00 Z5.000000
G00 X149.592959 Y133.041521
M5 S90
G4 P1

G01 Z-1.000000 F100.0(Penetrate)
G02 X149.763713 Y132.914135 Z-1.000000 I0.000000 J-0.178138 F800.000000
G02 X149.892959 Y132.441521 Z-1.000000 I-10.692924 J-3.178157
G01 X150.342952 Y132.591521 Z-1.000000
G01 X149.592959 Y135.141522 Z-1.000000
G01 X149.142959 Y134.991521 Z-1.000000
G02 X149.086573 Y134.529724 Z-1.000000 I-0.514544 J-0.171515
G02 X148.542959 Y133.941521 Z-1.000000 I-1.876424 J1.188877
G01 X143.442959 Y130.491521 Z-1.000000
G01 X143.442959 Y130.491521 Z-1.000000
G01 X143.442959 Y130.491521 Z-1.000000
G01 X143.442959 Y130.341521 Z-1.000000
G01 X143.442959 Y130.341521 Z-1.000000
G01 X143.442959 Y130.341521 Z-1.000000
G01 X149.592959 Y129.441521 Z-1.000000
G02 X150.245426 Y129.178319 Z-1.000000 I-0.000000 J-0.940322
G02 X150.492952 Y128.841521 Z-1.000000 I-0.856405 J-0.888764
G01 X150.942952 Y128.991521 Z-1.000000
G01 X150.942952 Y128.991521 Z-1.000000
G01 X150.642952 Y130.641521 Z-1.000000
G01 X150.192952 Y130.491521 Z-1.000000
G02 X150.123257 Y130.186216 Z-1.000000 I-0.703552 J0.000000
G02 X149.892959 Y130.041521 Z-1.000000 I-0.230299 J0.110926
G01 X148.992959 Y130.041521 Z-1.000000
G01 X145.242959 Y130.491521 Z-1.000000
G01 X148.992959 Y133.041521 Z-1.000000
G03 X149.111109 Y133.099106 Z-1.000000 I0.000000 J0.150000
G03 X149.142959 Y133.191521 Z-1.000000 I-0.118151 J0.092415
G01 X149.592959 Y133.041521 Z-1.000000
M3 S90
G4 P1
G00 Z5.000000

(End cutting path id: path209)


(Start cutting path id: path207)
(Change tool to Default tool)

G00 Z5.000000
G00 X147.192959 Y138.141521
M5 S90
G4 P1

G01 Z-1.000000 F100.0(Penetrate)
G01 X142.692959 Y136.341521 Z-1.000000 F800.000000
G02 X142.044407 Y136.308349 Z-1.000000 I-0.372793 J0.931984
G02 X141.642959 Y136.641521 Z-1.000000 I0.177965 J0.622879
G01 X141.342959 Y136.491521 Z-1.000000
G01 X141.342959 Y136.491521 Z-1.000000
G01 X142.242959 Y134.091521 Z-1.000000
G01 X142.692959 Y134.241521 Z-1.000000
G02 X142.748447 Y134.747010 Z-1.000000 I0.710978 J0.177744
G02 X143.142959 Y135.141522 Z-1.000000 I0.789024 J-0.394512
G01 X147.642959 Y136.941521 Z-1.000000
G02 X148.248666 Y136.959321 Z-1.000000 I0.327150 J-0.817874
G02 X148.542959 Y136.641521 Z-1.000000 I-0.142317 J-0.426952
G01 X148.992959 Y136.791521 Z-1.000000
G01 X148.092959 Y139.191521 Z-1.000000
G01 X147.642959 Y139.041521 Z-1.000000
G01 X147.642959 Y139.041521 Z-1.000000
G02 X147.587470 Y138.536033 Z-1.000000 I-0.710977 J-0.177744
G02 X147.192959 Y138.141521 Z-1.000000 I-0.789023 J0.394511
G01 X147.192959 Y138.141521 Z-1.000000
M3 S90
G4 P1
G00 Z5.000000

(End cutting path id: path207)


(Start cutting path id: path205)
(Change tool to Default tool)

G00 Z5.000000
G00 X143.142959 Y146.541521
M5 S90
G4 P1

G01 Z-1.000000 F100.0(Penetrate)
G01 X138.792959 Y143.541521 Z-1.000000 F800.000000
G02 X138.224831 Y143.400882 Z-1.000000 I-0.479532 J0.719298
G02 X137.742959 Y143.691521 Z-1.000000 I0.067689 J0.657013
G01 X137.742959 Y143.691521 Z-1.000000
G01 X137.442959 Y143.391521 Z-1.000000
G01 X138.042959 Y142.641521 Z-1.000000
G01 X138.642959 Y141.891521 Z-1.000000
G01 X138.942959 Y142.041521 Z-1.000000
G02 X138.809356 Y142.449039 Z-1.000000 I1.310804 J0.655402
G02 X138.792959 Y142.641521 Z-1.000000 I1.121582 J0.192482
G02 X138.867161 Y142.820662 Z-1.000000 I0.253343 J-0.000000
G02 X139.242959 Y143.091521 Z-1.000000 I1.022455 J-1.022455
G02 X142.201528 Y145.075306 Z-1.000000 I129.428577 J-189.828580
G02 X143.442959 Y145.791521 Z-1.000000 I6.618729 J-10.038380
G01 X140.592959 Y138.741521 Z-1.000000
G01 X140.592959 Y138.741521 Z-1.000000
G01 X140.742959 Y138.291521 Z-1.000000
G01 X145.692959 Y141.591521 Z-1.000000
G03 X146.099824 Y141.831536 Z-1.000000 I-1.524995 J3.049991
G02 X146.292959 Y141.891521 Z-1.000000 I0.193134 J-0.280922
G02 X146.479673 Y141.783221 Z-1.000000 I0.000000 J-0.215101
G02 X146.742959 Y141.291521 Z-1.000000 I-8.657439 J-4.952062
G01 X147.042959 Y141.441521 Z-1.000000
G02 X146.772889 Y141.821208 Z-1.000000 I0.990260 J0.990260
G03 X146.442959 Y142.491521 Z-1.000000 I-53.733998 J-26.031720
G02 X146.217959 Y142.866521 Z-1.000000 I0.637500 J0.637500
G03 X145.992959 Y143.241521 Z-1.000000 I-0.862500 J-0.262500
G01 X145.692959 Y143.091521 Z-1.000000
G02 X145.826562 Y142.684003 Z-1.000000 I-1.310804 J-0.655402
G02 X145.842959 Y142.491521 Z-1.000000 I-1.121582 J-0.192482
G02 X145.768756 Y142.312381 Z-1.000000 I-0.253343 J0.000000
G02 X145.392959 Y142.041521 Z-1.000000 I-1.022455 J1.022455
G01 X142.242959 Y139.941521 Z-1.000000
G01 X144.492959 Y145.641521 Z-1.000000
G01 X143.892959 Y146.541521 Z-1.000000
G01 X143.292959 Y147.291521 Z-1.000000
G01 X142.992959 Y147.141521 Z-1.000000
G01 X142.992959 Y147.141521 Z-1.000000
G02 X143.198801 Y146.841521 Z-1.000000 I-0.702921 J-0.702921
G02 X143.142959 Y146.541521 Z-1.000000 I-0.246535 J-0.109307
G01 X143.142959 Y146.541521 Z-1.000000
M3 S90
G4 P1
G00 Z5.000000

(End cutting path id: path205)


(Start cutting path id: path203)
(Change tool to Default tool)

G00 Z5.000000
G00 X134.742959 Y146.541521
M5 S90
G4 P1

G01 Z-1.000000 F100.0(Penetrate)
G03 X135.805968 Y145.822927 Z-1.000000 I2.390085 J2.390085 F800.000000
G03 X136.692959 Y145.641521 Z-1.000000 I0.886991 J2.077778
G03 X137.484754 Y145.851278 Z-1.000000 I0.000000 J1.599318
G03 X138.192959 Y146.391521 Z-1.000000 I-1.653683 J2.902130
G01 X140.892959 Y148.941521 Z-1.000000
G02 X141.316567 Y149.210645 Z-1.000000 I0.815206 J-0.815206
G02 X141.492959 Y149.241521 Z-1.000000 I0.176392 J-0.488427
G02 X141.626243 Y149.201166 Z-1.000000 I-0.000000 J-0.240282
G02 X141.942959 Y148.941521 Z-1.000000 I-1.152721 J-1.729081
G01 X142.242959 Y149.241521 Z-1.000000
G01 X141.042959 Y150.591521 Z-1.000000
G01 X140.742959 Y150.291521 Z-1.000000
G02 X140.960421 Y149.766521 Z-1.000000 I-0.525000 J-0.525000
G02 X140.742959 Y149.241521 Z-1.000000 I-0.742462 J0.000000
G01 X138.042959 Y146.541521 Z-1.000000
G02 X136.570232 Y146.064639 Z-1.000000 I-1.203169 J1.203169
G02 X135.342959 Y146.691521 Z-1.000000 I0.354346 J2.208500
G02 X134.871984 Y147.344965 Z-1.000000 I1.777863 J1.777863
G02 X134.742959 Y147.891521 Z-1.000000 I1.093113 J0.546556
G02 X134.898993 Y148.527880 Z-1.000000 I1.375663 J0.000000
G02 X135.642959 Y149.541521 Z-1.000000 I3.675192 J-1.917586
G01 X138.192959 Y151.941521 Z-1.000000
G02 X138.774761 Y152.135455 Z-1.000000 I0.581802 J-0.775736
G02 X139.242959 Y151.941521 Z-1.000000 I-0.000000 J-0.662132
G01 X139.542959 Y152.241521 Z-1.000000
G01 X137.742959 Y153.891521 Z-1.000000
G01 X137.442959 Y153.591521 Z-1.000000
G02 X137.557119 Y153.436563 Z-1.000000 I-0.454003 J-0.454003
G02 X137.592959 Y153.291521 Z-1.000000 I-0.275570 J-0.145043
G02 X137.532974 Y153.098386 Z-1.000000 I-0.340908 J0.000000
G03 X137.292959 Y152.691521 Z-1.000000 I2.809976 J-1.931861
G01 X134.892959 Y150.291521 Z-1.000000
G03 X134.186496 Y149.311355 Z-1.000000 I2.666794 J-2.666794
G03 X133.992959 Y148.491521 Z-1.000000 I1.639669 J-0.819834
G03 X134.218752 Y147.535047 Z-1.000000 I2.138740 J0.000000
G03 X135.042959 Y146.391521 Z-1.000000 I3.935467 J1.967734
G01 X134.742959 Y146.541521 Z-1.000000
M3 S90
G4 P1
G00 Z5.000000

(End cutting path id: path203)


(Start cutting path id: path201)
(Change tool to Default tool)

G00 Z5.000000
G00 X127.092960 Y154.041521
M5 S90
G4 P1

G01 Z-1.000000 F100.0(Penetrate)
G02 X126.565050 Y153.599387 Z-1.000000 I-0.902736 J0.541642 F800.000000
G02 X126.192960 Y153.591521 Z-1.000000 I-0.197063 J0.517215
G01 X125.892960 Y153.291521 Z-1.000000
G01 X129.942960 Y150.741521 Z-1.000000
G01 X129.942960 Y150.741521 Z-1.000000
G01 X129.942960 Y150.741521 Z-1.000000
G01 X130.692959 Y151.491521 Z-1.000000
G01 X130.092959 Y151.791521 Z-1.000000
G02 X129.292587 Y151.696407 Z-1.000000 I-0.532366 J1.064733
G02 X128.442960 Y152.091521 Z-1.000000 I0.510277 J2.208319
G01 X127.692960 Y152.541521 Z-1.000000
G02 X127.625293 Y152.704882 Z-1.000000 I0.163361 J0.163361
G02 X127.692960 Y152.991521 Z-1.000000 I0.640944 J0.000000
G02 X128.769532 Y154.733450 Z-1.000000 I454.243240 J-279.534301
G02 X129.192960 Y155.391520 Z-1.000000 I20.453107 J-12.695048
G01 X129.492960 Y155.241521 Z-1.000000
G02 X130.303731 Y154.632183 Z-1.000000 I-2.511436 J-4.185727
G02 X130.542959 Y153.891521 Z-1.000000 I-0.542743 J-0.584268
G01 X130.842959 Y153.741521 Z-1.000000
G01 X131.742959 Y155.241521 Z-1.000000
G01 X131.442959 Y155.391520 Z-1.000000
G02 X130.464335 Y155.189403 Z-1.000000 I-0.642980 J0.642980
G02 X129.792960 Y155.541520 Z-1.000000 I1.335368 J3.362232
G03 X129.647338 Y155.651452 Z-1.000000 I-0.466393 J-0.466393
G03 X129.492960 Y155.691520 Z-1.000000 I-0.154379 J-0.277369
G01 X130.842959 Y157.941520 Z-1.000000
G01 X131.892959 Y157.341520 Z-1.000000
G02 X132.537630 Y156.850499 Z-1.000000 I-3.574423 J-5.361635
G02 X132.792959 Y156.291520 Z-1.000000 I-0.484207 J-0.558978
G01 X133.242959 Y155.991520 Z-1.000000
G01 X133.392959 Y156.741520 Z-1.000000
G01 X133.392959 Y156.741520 Z-1.000000
G01 X133.392959 Y156.741520 Z-1.000000
G01 X129.492960 Y159.141520 Z-1.000000
G01 X129.192960 Y158.841520 Z-1.000000
G02 X129.363764 Y158.603726 Z-1.000000 I-0.140625 J-0.281249
G02 X129.192960 Y157.941520 Z-1.000000 I-0.888452 J-0.123971
G01 X126.642960 Y153.891521 Z-1.000000
G01 X127.092960 Y154.041521 Z-1.000000
M3 S90
G4 P1
G00 Z5.000000

(End cutting path id: path201)


(Start cutting path id: path199)
(Change tool to Default tool)

G00 Z5.000000
G00 X124.092960 Y154.641521
M5 S90
G4 P1

G01 Z-1.000000 F100.0(Penetrate)
G01 X124.092960 Y154.641521 Z-1.000000 F800.000000
G02 X123.681424 Y155.039048 Z-1.000000 I0.426823 J0.853647
G02 X123.642960 Y155.691520 Z-1.000000 I0.674836 J0.367152
G01 X125.592960 Y160.491520 Z-1.000000
G02 X125.773533 Y160.742052 Z-1.000000 I0.862210 J-0.431105
G02 X125.892960 Y160.791520 Z-1.000000 I0.119427 J-0.119427
G02 X126.521942 Y160.228379 Z-1.000000 I-0.716616 J-1.433233
G02 X126.942960 Y159.141520 Z-1.000000 I-2.410708 J-1.558813
G01 X127.392960 Y158.991520 Z-1.000000
G01 X127.842960 Y160.791520 Z-1.000000
G01 X123.042960 Y162.591520 Z-1.000000
G01 X122.142960 Y161.091520 Z-1.000000
G01 X122.592960 Y160.941520 Z-1.000000
G02 X123.711299 Y161.487567 Z-1.000000 I1.777095 J-2.221369
G02 X124.542960 Y161.391520 Z-1.000000 I0.283724 J-1.191919
G02 X124.628902 Y161.305578 Z-1.000000 I0.000000 J-0.085942
G02 X124.542960 Y160.941520 Z-1.000000 I-0.814058 J0.000000
G01 X122.592960 Y156.141520 Z-1.000000
G02 X122.157557 Y155.782461 Z-1.000000 I-0.545788 J0.218315
G02 X121.542960 Y155.841520 Z-1.000000 I-0.206396 J1.079562
G01 X121.392960 Y155.391520 Z-1.000000
G01 X123.942960 Y154.341521 Z-1.000000
G01 X124.092960 Y154.791521 Z-1.000000
G01 X124.092960 Y154.641521 Z-1.000000
M3 S90
G4 P1
G00 Z5.000000

(End cutting path id: path199)


(Start cutting path id: path197)
(Change tool to Default tool)

G00 Z5.000000
G00 X117.492960 Y161.841520
M5 S90
G4 P1

G01 Z-1.000000 F100.0(Penetrate)
G01 X117.942960 Y158.991520 Z-1.000000 F800.000000
G01 X115.992960 Y159.441520 Z-1.000000
G01 X117.492960 Y161.841520 Z-1.000000
M3 S90
G4 P1
G00 Z5.000000

(End cutting path id: path197)


(Start cutting path id: path197)
(Change tool to Default tool)

G00 Z5.000000
G00 X113.592960 Y157.191520
M5 S90
G4 P1

G01 Z-1.000000 F100.0(Penetrate)
G01 X115.392960 Y156.891520 Z-1.000000 F800.000000
G01 X115.542960 Y157.341520 Z-1.000000
G02 X115.256756 Y157.389636 Z-1.000000 I-0.000000 J0.875262
G02 X115.092960 Y157.791520 Z-1.000000 I0.094390 J0.272791
G02 X115.152946 Y157.984655 Z-1.000000 I0.340908 J-0.000000
G03 X115.392960 Y158.391520 Z-1.000000 I-2.809976 J1.931861
G03 X115.640779 Y158.793840 Z-1.000000 I-5.473894 J3.649263
G03 X115.692960 Y158.991520 Z-1.000000 I-0.348348 J0.197680
G01 X118.092960 Y158.541520 Z-1.000000
G01 X118.242960 Y157.791520 Z-1.000000
G01 X118.242960 Y157.641520 Z-1.000000
G01 X118.242960 Y156.891520 Z-1.000000
G02 X118.180033 Y156.792836 Z-1.000000 I-0.108843 J0.000000
G02 X117.642960 Y156.741520 Z-1.000000 I-0.341016 J0.732913
G01 X117.642960 Y156.741520 Z-1.000000
G01 X117.642960 Y156.441520 Z-1.000000
G03 X118.992960 Y156.066520 Z-1.000000 I4.362500 J13.087499
G02 X120.342960 Y155.691520 Z-1.000000 I-3.012500 J-13.462499
G01 X120.492960 Y156.141520 Z-1.000000
G02 X120.059340 Y156.435782 Z-1.000000 I0.305696 J0.917089
G02 X119.892960 Y156.891520 Z-1.000000 I0.540976 J0.455738
G01 X118.842960 Y163.341520 Z-1.000000
G03 X118.818919 Y163.542479 Z-1.000000 I-0.851917 J-0.000000
G03 X118.692960 Y163.641520 Z-1.000000 I-0.125959 J-0.030575
G03 X118.586894 Y163.597586 Z-1.000000 I0.000000 J-0.150000
G03 X118.542960 Y163.491520 Z-1.000000 I0.106066 J-0.106066
G03 X118.078523 Y162.922684 Z-1.000000 I2.582775 J-2.582775
G03 X115.392960 Y158.841520 Z-1.000000 I1017.619145 J-672.556662
G02 X114.538761 Y157.840521 Z-1.000000 I-4.633403 J3.088935
G02 X113.892960 Y157.491520 Z-1.000000 I-1.004944 J1.087571
G01 X113.892960 Y157.041520 Z-1.000000
G01 X113.592960 Y157.191520 Z-1.000000
M3 S90
G4 P1
G00 Z5.000000

(End cutting path id: path197)


(Start cutting path id: path195)
(Change tool to Default tool)

G00 Z5.000000
G00 X110.742960 Y164.241520
M5 S90
G4 P1

G01 Z-1.000000 F100.0(Penetrate)
G02 X110.835666 Y164.184225 Z-1.000000 I0.000000 J-0.103647 F800.000000
G02 X110.892960 Y163.941520 Z-1.000000 I-0.485410 J-0.242705
G01 X110.592960 Y158.691520 Z-1.000000
G02 X110.373291 Y158.161190 Z-1.000000 I-0.750000 J0.000000
G02 X109.842961 Y157.941520 Z-1.000000 I-0.530330 J0.530330
G01 X109.842961 Y157.491520 Z-1.000000
G01 X112.542960 Y157.341520 Z-1.000000
G01 X112.542960 Y157.791520 Z-1.000000
G01 X112.542960 Y157.791520 Z-1.000000
G02 X111.972603 Y158.054496 Z-1.000000 I0.000000 J0.750000
G02 X111.792960 Y158.541520 Z-1.000000 I0.570357 J0.487024
G01 X112.092960 Y163.791520 Z-1.000000
G02 X112.150255 Y164.034225 Z-1.000000 I0.542705 J0.000000
G02 X112.242960 Y164.091520 Z-1.000000 I0.092705 J-0.046353
G02 X112.973469 Y163.815546 Z-1.000000 I-0.000000 J-1.104822
G02 X113.742960 Y162.891520 Z-1.000000 I-2.591978 J-2.940908
G01 X114.192960 Y162.891520 Z-1.000000
G01 X114.042960 Y164.541520 Z-1.000000
G01 X108.942961 Y164.841520 Z-1.000000
G01 X108.642961 Y163.191520 Z-1.000000
G01 X109.092961 Y163.191520 Z-1.000000
G02 X109.949247 Y164.030416 Z-1.000000 I2.035669 J-1.221401
G02 X110.742960 Y164.241520 Z-1.000000 I0.793713 J-1.386561
G01 X110.742960 Y164.241520 Z-1.000000
M3 S90
G4 P1
G00 Z5.000000

(End cutting path id: path195)


(Start cutting path id: path193)
(Change tool to Default tool)

G00 Z5.000000
G00 X105.042961 Y160.341520
M5 S90
G4 P1

G01 Z-1.000000 F100.0(Penetrate)
G01 X105.342961 Y160.341520 Z-1.000000 F800.000000
G02 X106.502488 Y159.860144 Z-1.000000 I-2.769176 J-8.307527
G02 X107.142961 Y158.991520 Z-1.000000 I-0.534338 J-1.064425
G02 X107.090878 Y158.650962 Z-1.000000 I-1.139472 J-0.000000
G02 X106.842961 Y158.241520 Z-1.000000 I-0.957118 J0.299759
G02 X106.376867 Y157.918243 Z-1.000000 I-1.126454 J1.126454
G02 X105.792961 Y157.791520 Z-1.000000 I-0.583906 J1.281887
G02 X104.446244 Y158.037314 Z-1.000000 I-0.305493 J2.138454
G02 X103.692961 Y158.691520 Z-1.000000 I1.141836 J2.075546
G01 X103.242961 Y158.691520 Z-1.000000
G01 X103.392961 Y157.191520 Z-1.000000
G01 X103.392961 Y157.041520 Z-1.000000
G01 X103.842961 Y157.041520 Z-1.000000
G01 X103.842961 Y157.041520 Z-1.000000
G02 X103.996677 Y157.273924 Z-1.000000 I1.034809 J-0.517404
G02 X104.142961 Y157.341520 Z-1.000000 I0.146284 J-0.124487
G01 X104.592961 Y157.341520 Z-1.000000
G01 X104.892961 Y157.341520 Z-1.000000
G01 X105.942961 Y157.341520 Z-1.000000
G03 X107.666178 Y158.226559 Z-1.000000 I-0.234191 J2.576098
G03 X108.192961 Y159.891520 Z-1.000000 I-1.672617 J1.445021
G03 X107.354232 Y161.210641 Z-1.000000 I-1.813153 J-0.226644
G03 X105.942961 Y161.841520 Z-1.000000 I-2.910818 J-4.617532
G01 X105.642961 Y161.991520 Z-1.000000
G02 X104.452460 Y162.467810 Z-1.000000 I3.448747 J10.346242
G02 X103.992961 Y163.191520 Z-1.000000 I0.340171 J0.723710
G02 X104.020534 Y163.555831 Z-1.000000 I2.420542 J-0.000000
G02 X104.142961 Y163.941520 Z-1.000000 I1.285097 J-0.195646
G02 X104.423770 Y164.137850 Z-1.000000 I0.694840 J-0.694840
G02 X104.892961 Y164.241520 Z-1.000000 I0.469190 J-1.009898
G02 X106.066677 Y164.085965 Z-1.000000 I0.332647 J-1.995884
G02 X106.992961 Y163.191520 Z-1.000000 I-0.804218 J-1.759696
G01 X107.442961 Y163.191520 Z-1.000000
G01 X107.292961 Y164.841520 Z-1.000000
G01 X107.292961 Y164.991520 Z-1.000000
G01 X106.992961 Y164.991520 Z-1.000000
G01 X106.992961 Y164.841520 Z-1.000000
G02 X106.905093 Y164.629388 Z-1.000000 I-0.300000 J0.000000
G02 X106.692961 Y164.541520 Z-1.000000 I-0.212132 J0.212132
G01 X106.392961 Y164.541520 Z-1.000000
G01 X106.092961 Y164.541520 Z-1.000000
G03 X105.567961 Y164.665456 Z-1.000000 I-0.525000 J-1.050000
G03 X105.042961 Y164.541520 Z-1.000000 I-0.000000 J-1.173936
G03 X103.714655 Y163.921595 Z-1.000000 I0.356789 J-2.497524
G03 X103.092961 Y162.291520 Z-1.000000 I1.273920 J-1.419451
G03 X103.867317 Y160.984782 Z-1.000000 I1.888002 J0.236000
G03 X105.192961 Y160.341520 Z-1.000000 I2.498239 J3.460823
G01 X105.042961 Y160.341520 Z-1.000000
M3 S90
G4 P1
G00 Z5.000000

(End cutting path id: path193)


(Start cutting path id: path191)
(Change tool to Default tool)

G00 Z5.000000
G00 X91.092961 Y152.391521
M5 S90
G4 P1

G01 Z-1.000000 F100.0(Penetrate)
G03 X91.892961 Y152.991521 Z-1.000000 I-1.250000 J2.500000 F800.000000
G02 X92.292961 Y153.291521 Z-1.000000 I1.025000 J-0.950000
G03 X92.452264 Y153.506929 Z-1.000000 I-0.639673 J0.639673
G02 X92.592961 Y153.591521 Z-1.000000 I0.140697 J-0.074712
G03 X92.707121 Y153.746478 Z-1.000000 I-0.454003 J0.454003
G03 X92.742961 Y153.891521 Z-1.000000 I-0.275570 J0.145043
G02 X92.935443 Y153.875124 Z-1.000000 I0.000000 J-1.137979
G02 X93.342961 Y153.741521 Z-1.000000 I-0.247884 J-1.444408
G01 X93.342961 Y153.741521 Z-1.000000
G01 X93.342961 Y153.741521 Z-1.000000
G01 X93.492961 Y153.741521 Z-1.000000
G01 X93.492961 Y153.741521 Z-1.000000
G01 X93.492961 Y153.891521 Z-1.000000
G01 X92.442961 Y155.691520 Z-1.000000
G01 X91.992961 Y155.391520 Z-1.000000
G02 X91.995721 Y154.159062 Z-1.000000 I-3.116045 J-0.623209
G02 X90.942961 Y152.691521 Z-1.000000 I-2.129009 J0.415896
G02 X90.480087 Y152.560647 Z-1.000000 I-0.575213 J1.150426
G02 X90.042961 Y152.541521 Z-1.000000 I-0.437126 J4.985724
G02 X88.502065 Y153.658699 Z-1.000000 I0.764479 J2.675675
G02 X87.942962 Y154.491521 Z-1.000000 I128.789194 J87.065020
G02 X87.157738 Y156.182883 Z-1.000000 I6.394936 J3.996835
G02 X87.192962 Y157.191520 Z-1.000000 I1.418308 J0.455404
G02 X87.458145 Y157.747252 Z-1.000000 I2.371557 J-0.790519
G02 X87.942962 Y158.241520 Z-1.000000 I1.418909 J-0.906870
G02 X89.159444 Y158.432972 Z-1.000000 I0.844936 J-1.408226
G02 X90.642961 Y157.791520 Z-1.000000 I-1.021840 J-4.399489
G01 X91.092961 Y158.091520 Z-1.000000
G01 X90.042961 Y159.741520 Z-1.000000
G01 X90.042961 Y159.741520 Z-1.000000
G01 X90.042961 Y159.741520 Z-1.000000
G01 X89.892962 Y159.591520 Z-1.000000
G01 X89.892962 Y159.591520 Z-1.000000
G01 X89.892962 Y159.591520 Z-1.000000
G01 X89.892962 Y159.591520 Z-1.000000
G02 X89.860705 Y159.454881 Z-1.000000 I-0.305534 J-0.000000
G02 X89.742962 Y159.291520 Z-1.000000 I-0.562210 J0.281105
G02 X89.367962 Y159.141520 Z-1.000000 I-1.087500 J2.175000
G03 X88.992962 Y158.991520 Z-1.000000 I0.712500 J-2.325000
G01 X88.842962 Y158.991520 Z-1.000000
G03 X88.426425 Y158.912557 Z-1.000000 I0.000000 J-1.138110
G03 X87.492962 Y158.391520 Z-1.000000 I1.459925 J-3.712222
G03 X86.745476 Y157.763220 Z-1.000000 I0.936426 J-1.872851
G03 X86.292962 Y156.741520 Z-1.000000 I2.063136 J-1.524830
G03 X86.210061 Y155.264265 Z-1.000000 I2.672846 J-0.890949
G03 X86.742962 Y153.741521 Z-1.000000 I6.228870 J1.325240
G03 X88.998698 Y151.956102 Z-1.000000 I3.696119 J2.352076
G03 X91.242961 Y152.241521 Z-1.000000 I0.835178 J2.399046
G01 X91.092961 Y152.391521 Z-1.000000
M3 S90
G4 P1
G00 Z5.000000

(End cutting path id: path191)


(Start cutting path id: path189)
(Change tool to Default tool)

G00 Z5.000000
G00 X83.442962 Y150.441521
M5 S90
G4 P1

G01 Z-1.000000 F100.0(Penetrate)
G01 X83.742962 Y150.591521 Z-1.000000 F800.000000
G02 X85.005063 Y150.906713 Z-1.000000 I2.673173 J-8.019518
G02 X85.992962 Y150.591521 Z-1.000000 I0.188672 J-1.114419
G02 X86.167949 Y150.319917 Z-1.000000 I-0.540224 J-0.540224
G02 X86.142962 Y149.841521 Z-1.000000 I-0.560644 J-0.210568
G02 X85.989932 Y149.336098 Z-1.000000 I-0.911163 J-0.000000
G02 X85.542962 Y148.941521 Z-1.000000 I-0.966389 J0.644259
G02 X84.333768 Y148.354435 Z-1.000000 I-1.452174 J1.452174
G02 X83.292962 Y148.491521 Z-1.000000 I-0.251462 J2.110445
G01 X82.992962 Y148.191521 Z-1.000000
G01 X82.992962 Y148.191521 Z-1.000000
G01 X84.042962 Y147.141521 Z-1.000000
G01 X84.042962 Y147.141521 Z-1.000000
G01 X84.342962 Y147.441521 Z-1.000000
G01 X84.342962 Y147.441521 Z-1.000000
G01 X84.342962 Y147.741521 Z-1.000000
G02 X84.488583 Y147.851453 Z-1.000000 I0.466393 J-0.466393
G02 X84.642962 Y147.891521 Z-1.000000 I0.154379 J-0.277369
G01 X84.792962 Y148.041521 Z-1.000000
G03 X85.215507 Y148.271498 Z-1.000000 I-3.093372 J6.186743
G03 X85.692962 Y148.641521 Z-1.000000 I-1.220748 J2.068225
G03 X86.535695 Y150.401521 Z-1.000000 I-2.075623 J2.075623
G03 X85.992962 Y151.941521 Z-1.000000 I-1.879467 J0.203266
G03 X84.482409 Y152.504774 Z-1.000000 I-1.371807 J-1.371807
G03 X82.992962 Y152.241521 Z-1.000000 I0.524209 J-7.311049
G01 X82.692962 Y152.091521 Z-1.000000
G02 X81.418659 Y151.766620 Z-1.000000 I-2.886182 J8.658546
G02 X80.592962 Y152.091521 Z-1.000000 I-0.149317 J0.832186
G02 X80.396632 Y152.372330 Z-1.000000 I0.694840 J0.694840
G02 X80.292962 Y152.841521 Z-1.000000 I1.009898 J0.469190
G02 X80.401238 Y153.184539 Z-1.000000 I0.597479 J-0.000000
G02 X80.742962 Y153.591521 Z-1.000000 I2.505526 J-1.756821
G02 X81.854580 Y154.128138 Z-1.000000 I1.728101 J-2.160126
G02 X83.142962 Y153.891521 Z-1.000000 I0.369261 J-1.615298
G01 X83.442962 Y154.191521 Z-1.000000
G01 X82.392962 Y155.391520 Z-1.000000
G01 X82.242962 Y155.391520 Z-1.000000
G01 X81.942962 Y155.091521 Z-1.000000
G01 X81.942962 Y155.091521 Z-1.000000
G02 X81.923478 Y154.887459 Z-1.000000 I-1.078325 J-0.000000
G02 X81.792962 Y154.641521 Z-1.000000 I-0.466325 J0.089871
G03 X81.700547 Y154.609671 Z-1.000000 I0.000000 J-0.150000
G03 X81.642962 Y154.491521 Z-1.000000 I0.092415 J-0.118151
G03 X81.492962 Y154.416521 Z-1.000000 I-0.000000 J-0.187500
G02 X81.342962 Y154.341521 Z-1.000000 I-0.150000 J0.112500
G03 X80.920416 Y154.111544 Z-1.000000 I3.093371 J-6.186743
G03 X80.442962 Y153.741521 Z-1.000000 I1.220747 J-2.068225
G03 X79.785311 Y152.446066 Z-1.000000 I1.654668 J-1.654668
G03 X80.292962 Y150.891521 Z-1.000000 I1.784914 J-0.277282
G03 X81.693439 Y150.306461 Z-1.000000 I1.412548 J1.412548
G03 X83.292962 Y150.591521 Z-1.000000 I0.027060 J4.478293
G01 X83.442962 Y150.441521 Z-1.000000
M3 S90
G4 P1
G00 Z5.000000

(End cutting path id: path189)


(Start cutting path id: path187)
(Change tool to Default tool)

G00 Z5.000000
G00 X77.292962 Y148.191521
M5 S90
G4 P1

G01 Z-1.000000 F100.0(Penetrate)
G01 X81.042962 Y145.191521 Z-1.000000 F800.000000
G02 X81.335424 Y144.697587 Z-1.000000 I-0.450000 J-0.600000
G02 X81.192962 Y144.141521 Z-1.000000 I-0.742462 J-0.106066
G01 X81.492962 Y143.841521 Z-1.000000
G01 X83.142962 Y145.791521 Z-1.000000
G01 X82.842962 Y146.091521 Z-1.000000
G02 X82.374764 Y145.897587 Z-1.000000 I-0.468198 J0.468198
G02 X81.792962 Y146.091521 Z-1.000000 I0.000000 J0.969670
G01 X78.042962 Y149.091521 Z-1.000000
G02 X77.750500 Y149.585455 Z-1.000000 I0.450000 J0.600000
G02 X77.892962 Y150.141521 Z-1.000000 I0.742462 J0.106066
G01 X77.592962 Y150.441521 Z-1.000000
G01 X75.942962 Y148.491521 Z-1.000000
G01 X76.242962 Y148.191521 Z-1.000000
G02 X76.711160 Y148.385455 Z-1.000000 I0.468198 J-0.468198
G02 X77.292962 Y148.191521 Z-1.000000 I0.000000 J-0.969670
G01 X77.292962 Y148.191521 Z-1.000000
M3 S90
G4 P1
G00 Z5.000000

(End cutting path id: path187)


(Start cutting path id: path185)
(Change tool to Default tool)

G00 Z5.000000
G00 X74.442962 Y139.191521
M5 S90
G4 P1

G01 Z-1.000000 F100.0(Penetrate)
G03 X77.287216 Y138.641200 Z-1.000000 I2.119926 J3.331312 F800.000000
G03 X79.092962 Y139.941521 Z-1.000000 I-0.479560 J2.569935
G03 X79.492962 Y140.841521 Z-1.000000 I-9.700000 J4.850000
G02 X79.692962 Y141.291521 Z-1.000000 I5.050000 J-1.975000
G01 X79.692962 Y141.741521 Z-1.000000
G01 X79.692962 Y142.041521 Z-1.000000
G02 X79.812798 Y142.171685 Z-1.000000 I0.130609 J0.000000
G02 X80.292962 Y142.191521 Z-1.000000 I0.480164 J-5.801639
G01 X80.292962 Y142.191521 Z-1.000000
G01 X80.292962 Y142.191521 Z-1.000000
G01 X80.292962 Y142.341521 Z-1.000000
G01 X80.292962 Y142.341521 Z-1.000000
G01 X80.292962 Y142.341521 Z-1.000000
G01 X78.492962 Y143.391521 Z-1.000000
G01 X78.192962 Y142.941521 Z-1.000000
G02 X78.755668 Y141.902000 Z-1.000000 I-3.220412 J-2.415309
G02 X78.642962 Y139.941521 Z-1.000000 I-2.335201 J-0.849231
G02 X78.323389 Y139.586094 Z-1.000000 I-0.805219 J0.402610
G02 X77.892962 Y139.341521 Z-1.000000 I-2.517379 J3.929330
G02 X75.941515 Y139.552109 Z-1.000000 I-0.716475 J2.507662
G02 X75.042962 Y140.091521 Z-1.000000 I5.242027 J9.750282
G02 X73.505859 Y141.263901 Z-1.000000 I2.313586 J4.627171
G02 X73.092962 Y142.041521 Z-1.000000 I1.361034 J1.221103
G02 X73.057108 Y142.716521 Z-1.000000 I1.207829 J0.402610
G02 X73.242962 Y143.391521 Z-1.000000 I6.446709 J-1.411951
G02 X74.226681 Y144.109805 Z-1.000000 I1.342051 J-0.805231
G02 X75.792962 Y144.291521 Z-1.000000 I1.566281 J-6.659325
G01 X76.092962 Y144.741521 Z-1.000000
G01 X74.442962 Y145.791521 Z-1.000000
G01 X74.442962 Y145.791521 Z-1.000000
G01 X74.442962 Y145.641521 Z-1.000000
G01 X74.292962 Y145.491521 Z-1.000000
G01 X74.292962 Y145.491521 Z-1.000000
G01 X74.292962 Y145.491521 Z-1.000000
G01 X74.292962 Y145.491521 Z-1.000000
G02 X74.410706 Y145.328160 Z-1.000000 I-0.444466 J-0.444466
G02 X74.442962 Y145.191521 Z-1.000000 I-0.273278 J-0.136639
G02 X74.190612 Y144.807177 Z-1.000000 I-1.756449 J0.878225
G02 X73.992962 Y144.591521 Z-1.000000 I-2.573808 J2.160502
G01 X73.842962 Y144.441521 Z-1.000000
G03 X73.472606 Y144.161877 Z-1.000000 I0.569951 J-1.139903
G03 X72.942962 Y143.391521 Z-1.000000 I2.495187 J-2.282772
G03 X72.651097 Y142.448086 Z-1.000000 I2.711268 J-1.355634
G03 X72.792962 Y141.291521 Z-1.000000 I2.258347 J-0.309972
G03 X73.432627 Y140.058097 Z-1.000000 I4.223879 J1.407960
G03 X74.742962 Y138.891521 Z-1.000000 I3.415093 J2.516750
G01 X74.442962 Y139.191521 Z-1.000000
M3 S90
G4 P1
G00 Z5.000000

(End cutting path id: path185)


(Start cutting path id: path183)
(Change tool to Default tool)

G00 Z5.000000
G00 X68.892963 Y133.191521
M5 S90
G4 P1

G01 Z-1.000000 F100.0(Penetrate)
G02 X69.024764 Y133.509719 Z-1.000000 I0.450000 J-0.000000 F800.000000
G02 X69.342963 Y133.641521 Z-1.000000 I0.318198 J-0.318198
G01 X74.442962 Y131.991521 Z-1.000000
G02 X74.876582 Y131.697259 Z-1.000000 I-0.305696 J-0.917089
G02 X75.042962 Y131.241521 Z-1.000000 I-0.540976 J-0.455738
G01 X75.042962 Y131.241521 Z-1.000000
G01 X75.492962 Y131.241521 Z-1.000000
G01 X75.942962 Y132.891521 Z-1.000000
G01 X75.492962 Y133.041521 Z-1.000000
G02 X75.303581 Y132.726062 Z-1.000000 I-2.138538 J1.069269
G02 X75.042962 Y132.591521 Z-1.000000 I-0.260618 J0.185150
G02 X74.716016 Y132.532310 Z-1.000000 I-0.206173 J0.206173
G03 X74.442962 Y132.591521 Z-1.000000 I-0.273054 J-0.600000
G01 X69.792963 Y134.241521 Z-1.000000
G01 X77.142962 Y136.341521 Z-1.000000
G01 X77.142962 Y136.341521 Z-1.000000
G01 X77.142962 Y136.341521 Z-1.000000
G01 X77.292962 Y136.641521 Z-1.000000
G01 X77.292962 Y136.791521 Z-1.000000
G01 X77.142962 Y136.791521 Z-1.000000
G01 X71.592962 Y138.741521 Z-1.000000
G02 X71.139727 Y139.229834 Z-1.000000 I0.289150 J0.722875
G02 X71.142962 Y139.641521 Z-1.000000 I0.635718 J0.200860
G01 X70.692962 Y139.791521 Z-1.000000
G01 X69.942963 Y137.991521 Z-1.000000
G01 X70.392962 Y137.841521 Z-1.000000
G02 X70.693057 Y138.189239 Z-1.000000 I0.572683 J-0.190894
G02 X71.442962 Y138.291521 Z-1.000000 I0.522834 J-1.033075
G01 X75.042962 Y137.091521 Z-1.000000
G01 X69.192963 Y135.441521 Z-1.000000
G01 X69.192963 Y135.441521 Z-1.000000
G01 X69.192963 Y135.441521 Z-1.000000
G01 X68.742963 Y133.641521 Z-1.000000
G01 X69.192963 Y133.491521 Z-1.000000
G01 X69.192963 Y133.491521 Z-1.000000
G01 X68.892963 Y133.191521 Z-1.000000
M3 S90
G4 P1
G00 Z5.000000

(End cutting path id: path183)


(Start cutting path id: path181)
(Change tool to Default tool)

G00 Z5.000000
G00 X72.192962 Y128.391521
M5 S90
G4 P1

G01 Z-1.000000 F100.0(Penetrate)
G01 X71.892962 Y126.441521 Z-1.000000 F800.000000
G01 X69.342963 Y127.641521 Z-1.000000
G01 X72.192962 Y128.391521 Z-1.000000
M3 S90
G4 P1
G00 Z5.000000

(End cutting path id: path181)


(Start cutting path id: path181)
(Change tool to Default tool)

G00 Z5.000000
G00 X67.542963 Y128.091521
M5 S90
G4 P1

G01 Z-1.000000 F100.0(Penetrate)
G03 X68.139143 Y127.676319 Z-1.000000 I1.458252 J1.458252 F800.000000
G03 X72.492962 Y125.691521 Z-1.000000 I282.951847 J614.910834
G02 X73.641617 Y124.949438 Z-1.000000 I-1.604206 J-3.743146
G02 X73.842962 Y124.491521 Z-1.000000 I-0.420045 J-0.457917
G01 X74.292962 Y124.491521 Z-1.000000
G01 X74.442962 Y126.291521 Z-1.000000
G01 X73.992962 Y126.291521 Z-1.000000
G01 X73.992962 Y126.291521 Z-1.000000
G02 X73.946516 Y125.987968 Z-1.000000 I-1.015165 J0.000000
G02 X73.542962 Y125.691521 Z-1.000000 I-0.403553 J0.126456
G02 X73.342962 Y125.741521 Z-1.000000 I0.000000 J0.425000
G03 X72.942962 Y125.841521 Z-1.000000 I-0.400000 J-0.750000
G02 X72.555928 Y125.993758 Z-1.000000 I1.241258 J3.723774
G02 X72.342962 Y126.141521 Z-1.000000 I0.302263 J0.662992
G01 X72.642962 Y128.541521 Z-1.000000
G01 X73.392962 Y128.691521 Z-1.000000
G01 X73.542962 Y128.691521 Z-1.000000
G03 X73.767962 Y128.766521 Z-1.000000 I0.000000 J0.375000
G02 X73.992962 Y128.841521 Z-1.000000 I0.225000 J-0.300000
G02 X74.149118 Y128.797676 Z-1.000000 I-0.000000 J-0.300000
G02 X74.292962 Y128.541521 Z-1.000000 I-0.156155 J-0.256155
G01 X74.292962 Y128.541521 Z-1.000000
G01 X74.742962 Y128.541521 Z-1.000000
G01 X75.192962 Y130.791521 Z-1.000000
G01 X74.742962 Y130.791521 Z-1.000000
G02 X74.533638 Y130.565476 Z-1.000000 I-0.492788 J0.246394
G02 X73.992962 Y130.341521 Z-1.000000 I-1.022853 J1.704755
G01 X67.692963 Y128.541521 Z-1.000000
G03 X67.538584 Y128.501453 Z-1.000000 I0.000000 J-0.317438
G03 X67.392963 Y128.391521 Z-1.000000 I0.320772 J-0.576325
G03 X67.436897 Y128.285455 Z-1.000000 I0.150000 J0.000000
G03 X67.542963 Y128.241521 Z-1.000000 I0.106066 J0.106066
G01 X67.542963 Y128.091521 Z-1.000000
M3 S90
G4 P1
G00 Z5.000000

(End cutting path id: path181)


(Start cutting path id: path179)
(Change tool to Default tool)

G00 Z5.000000
G00 X69.042963 Y121.491521
M5 S90
G4 P1

G01 Z-1.000000 F100.0(Penetrate)
G02 X70.088787 Y121.112346 Z-1.000000 I-0.000000 J-1.631862 F800.000000
G02 X70.542962 Y120.141522 Z-1.000000 I-0.810508 J-0.970825
G01 X70.542962 Y119.241522 Z-1.000000
G01 X67.692963 Y119.091522 Z-1.000000
G01 X67.692963 Y119.991522 Z-1.000000
G02 X68.020864 Y120.979004 Z-1.000000 I1.650864 J0.000000
G02 X69.042963 Y121.491521 Z-1.000000 I1.022098 J-0.762913
G01 X69.042963 Y121.491521 Z-1.000000
M3 S90
G4 P1
G00 Z5.000000

(End cutting path id: path179)


(Start cutting path id: path179)
(Change tool to Default tool)

G00 Z5.000000
G00 X67.692963 Y117.291522
M5 S90
G4 P1

G01 Z-1.000000 F100.0(Penetrate)
G02 X67.843146 Y117.647588 Z-1.000000 I0.497185 J0.000000 F800.000000
G02 X68.442963 Y117.891522 Z-1.000000 I0.599816 J-0.615486
G01 X73.092962 Y118.191522 Z-1.000000
G02 X73.792166 Y118.046975 Z-1.000000 I0.000000 J-1.763375
G02 X73.992962 Y117.741522 Z-1.000000 I-0.131931 J-0.305454
G01 X74.442962 Y117.741522 Z-1.000000
G01 X74.292962 Y120.141522 Z-1.000000
G01 X73.842962 Y120.141522 Z-1.000000
G02 X73.641766 Y119.711960 Z-1.000000 I-0.559164 J-0.000000
G02 X72.942962 Y119.391522 Z-1.000000 I-0.940263 J1.128316
G01 X70.842962 Y119.241522 Z-1.000000
G01 X70.842962 Y119.991522 Z-1.000000
G02 X70.910773 Y120.155230 Z-1.000000 I0.231519 J-0.000000
G02 X71.442962 Y120.591521 Z-1.000000 I2.469151 J-2.469151
G01 X74.142962 Y121.941521 Z-1.000000
G01 X74.142962 Y121.941521 Z-1.000000
G01 X74.142962 Y123.741521 Z-1.000000
G01 X73.692962 Y123.741521 Z-1.000000
G01 X73.692962 Y123.741521 Z-1.000000
G02 X73.437305 Y123.209679 Z-1.000000 I-0.681022 J-0.000000
G02 X73.242962 Y123.141521 Z-1.000000 I-0.194342 J0.242990
G01 X70.542962 Y121.641521 Z-1.000000
G01 X70.392962 Y121.491521 Z-1.000000
G03 X69.951600 Y122.380432 Z-1.000000 I-2.247390 J-0.561848
G03 X68.742963 Y122.841521 Z-1.000000 I-0.998155 J-0.801805
G03 X67.745314 Y122.441466 Z-1.000000 I-0.000000 J-1.443985
G03 X66.792963 Y119.991522 Z-1.000000 I2.144055 J-2.243518
G01 X67.092963 Y117.441522 Z-1.000000
G01 X67.542963 Y117.441522 Z-1.000000
G01 X67.542963 Y117.441522 Z-1.000000
G01 X67.692963 Y117.291522 Z-1.000000
M3 S90
G4 P1
G00 Z5.000000

(End cutting path id: path179)


(Start cutting path id: path177)
(Change tool to Default tool)

G00 Z5.000000
G00 X74.142962 Y100.491522
M5 S90
G4 P1

G01 Z-1.000000 F100.0(Penetrate)
G01 X78.792962 Y103.041522 Z-1.000000 F800.000000
G02 X79.399889 Y103.144450 Z-1.000000 I0.418702 J-0.628053
G02 X79.842962 Y102.891522 Z-1.000000 I-0.241369 J-0.937370
G01 X79.842962 Y102.891522 Z-1.000000
G01 X80.142962 Y103.191522 Z-1.000000
G01 X79.692962 Y103.941522 Z-1.000000
G01 X79.242962 Y104.841522 Z-1.000000
G01 X78.942962 Y104.691522 Z-1.000000
G02 X79.076565 Y104.284004 Z-1.000000 I-1.310804 J-0.655402
G02 X79.092962 Y104.091522 Z-1.000000 I-1.121582 J-0.192482
G02 X79.018760 Y103.912382 Z-1.000000 I-0.253343 J0.000000
G02 X78.642962 Y103.641522 Z-1.000000 I-1.022455 J1.022455
G02 X75.559202 Y101.910566 Z-1.000000 I-293.567088 J519.387925
G02 X74.292962 Y101.241522 Z-1.000000 I-15.539243 J27.876963
G01 X77.592962 Y108.141522 Z-1.000000
G01 X77.592962 Y108.141522 Z-1.000000
G01 X77.442962 Y108.591522 Z-1.000000
G01 X72.192962 Y105.591522 Z-1.000000
G02 X71.809948 Y105.404304 Z-1.000000 I-10.594667 J21.189335
G02 X71.592962 Y105.441522 Z-1.000000 I-0.082178 J0.172026
G02 X71.452265 Y105.526114 Z-1.000000 I0.000000 J0.159303
G03 X71.292962 Y105.741522 Z-1.000000 I-0.798976 J-0.424264
G01 X70.842962 Y105.591522 Z-1.000000
G02 X71.051728 Y105.253732 Z-1.000000 I-0.611069 J-0.611069
G02 X71.142962 Y104.691522 Z-1.000000 I-1.686629 J-0.562210
G02 X71.367962 Y104.316522 Z-1.000000 I-0.637500 J-0.637500
G03 X71.592962 Y103.941522 Z-1.000000 I0.862500 J0.262500
G01 X71.892962 Y104.091522 Z-1.000000
G02 X71.759359 Y104.499040 Z-1.000000 I1.310804 J0.655402
G02 X71.742962 Y104.691522 Z-1.000000 I1.121582 J0.192482
G02 X71.817165 Y104.870663 Z-1.000000 I0.253343 J-0.000000
G02 X72.192962 Y105.141522 Z-1.000000 I1.022455 J-1.022455
G01 X75.492962 Y106.941522 Z-1.000000
G01 X72.792962 Y101.391522 Z-1.000000
G01 X73.392962 Y100.491522 Z-1.000000
G01 X73.842962 Y99.741523 Z-1.000000
G01 X74.142962 Y99.891523 Z-1.000000
G01 X74.142962 Y99.891523 Z-1.000000
G03 X74.033155 Y100.301330 Z-1.000000 I-0.819615 J0.000000
G02 X74.142962 Y100.491522 Z-1.000000 I0.109808 J0.063397
G01 X74.142962 Y100.491522 Z-1.000000
M3 S90
G4 P1
G00 Z5.000000

(End cutting path id: path177)


(Start cutting path id: path175)
(Change tool to Default tool)

G00 Z5.000000
G00 X88.242962 Y94.341523
M5 S90
G4 P1

G01 Z-1.000000 F100.0(Penetrate)
G01 X87.942962 Y94.341523 Z-1.000000 F800.000000
G01 X87.642962 Y94.641523 Z-1.000000
G01 X87.492962 Y94.791523 Z-1.000000
G02 X87.099000 Y95.244930 Z-1.000000 I3.034546 J3.034546
G03 X86.742962 Y95.541523 Z-1.000000 I-0.808777 J-0.608885
G03 X84.893416 Y96.144679 Z-1.000000 I-1.761829 J-2.265209
G03 X83.442962 Y95.391523 Z-1.000000 I0.057620 J-1.884212
G03 X83.030289 Y93.738331 Z-1.000000 I1.889759 J-1.349828
G03 X83.442962 Y92.391523 Z-1.000000 I4.217730 J0.555720
G01 X83.592962 Y92.091523 Z-1.000000
G02 X84.097147 Y90.922103 Z-1.000000 I-4.106369 J-2.463822
G02 X83.892962 Y90.141523 Z-1.000000 I-0.768899 J-0.215866
G02 X83.566240 Y89.906035 Z-1.000000 I-0.888931 J0.888931
G02 X83.292962 Y89.841523 Z-1.000000 I-0.273278 J0.546556
G02 X82.823771 Y89.945193 Z-1.000000 I-0.000000 J1.113568
G02 X82.542962 Y90.141523 Z-1.000000 I0.414030 J0.891170
G02 X81.847389 Y91.151930 Z-1.000000 I1.325914 J1.657392
G02 X81.942962 Y92.391523 Z-1.000000 I1.569871 J0.502443
G01 X81.642962 Y92.691523 Z-1.000000
G01 X80.592962 Y91.491523 Z-1.000000
G01 X80.592962 Y91.341523 Z-1.000000
G01 X80.892962 Y91.041523 Z-1.000000
G01 X80.892962 Y91.041523 Z-1.000000
G01 X81.342962 Y91.041523 Z-1.000000
G01 X81.492962 Y90.891523 Z-1.000000
G03 X81.567962 Y90.741523 Z-1.000000 I0.187500 J-0.000000
G02 X81.642962 Y90.591523 Z-1.000000 I-0.112500 J-0.150000
G03 X81.936273 Y90.166891 Z-1.000000 I1.644199 J0.822100
G03 X82.392962 Y89.691523 Z-1.000000 I12.088495 J11.156438
G03 X83.732998 Y89.103638 Z-1.000000 I1.423454 J1.423454
G03 X85.242962 Y89.841523 Z-1.000000 I0.073167 J1.764168
G03 X85.665716 Y91.298734 Z-1.000000 I-1.454156 J1.211796
G03 X85.242962 Y92.841523 Z-1.000000 I-5.788691 J-0.756898
G01 X85.092962 Y92.991523 Z-1.000000
G02 X84.625381 Y94.221379 Z-1.000000 I5.874480 J2.937240
G02 X84.792962 Y95.091523 Z-1.000000 I0.977055 J0.263039
G02 X85.119684 Y95.327011 Z-1.000000 I0.888931 J-0.888931
G02 X85.392962 Y95.391523 Z-1.000000 I0.273278 J-0.546556
G02 X85.870101 Y95.307043 Z-1.000000 I0.000000 J-1.389680
G02 X86.442962 Y94.941523 Z-1.000000 I-0.540707 J-1.479088
G02 X87.169767 Y93.801635 Z-1.000000 I-1.309059 J-1.636324
G02 X87.192962 Y92.691523 Z-1.000000 I-2.490671 J-0.607339
G01 X87.492962 Y92.391523 Z-1.000000
G01 X88.392962 Y93.591523 Z-1.000000
G01 X88.392962 Y93.591523 Z-1.000000
G01 X88.092962 Y93.891523 Z-1.000000
