
(Header)
(Generated by gcodetools from Inkscape.)
(Using default header. To add your own header create file "header" in the output dir.)

(Header end.)
G21 (All units in mm)
M3 S90        
G4 P1          
(Start cutting path id: path8857)
(Change tool to Default tool)

G00 Z5.000000
G00 X1.97630000 Y3.098121
M5 S90       
G4 P1        
G01 Z-1.000000 F100.0(Penetrate)
G01 X5.08830000 Y3.098100 Z-1.000000 F800.000000
G01 X5.08830000 Y00000000 Z-1.000000
G01 X0.01788400 Y00000000 Z-1.000000
G01 X0.01788400 Y2.122800 Z-1.000000
G01 X3.12090000 Y13.597200 Z-1.000000
G01 X0000000000 Y13.597200 Z-1.000000
G01 X0000000000 Y16.706800 Z-1.000000
G01 X5.05690000 Y16.706800 Z-1.000000
G01 X5.05690000 Y14.641400 Z-1.000000
G01 X1.97630000 Y3.098100 Z-1.000000
M3 S90       
G4 P1      
G00 Z5.000000
